;FLAVOR:RepRap
;TIME:2410
;Filament used: 1.7248m
;Layer height: 0.2
;Generated with Cura_SteamEngine 2.4.0
M104 S205
M109 S205
; -- START GCODE --
G21                     ;set units to millimetres
G90                     ;set to absolute positioning
M106 S0                 ;set fan speed to zero (turned off)
G28 X0 Y0               ;move to the X/Y origin (Home)
G28 Z0                  ;move to the Z origin (Home)
G1 Z15.0 F1200          ;move Z to position 15.0 mm
G92 E0                  ;zero the extruded length
G1 E20 F200             ;extrude 20mm of feed stock
G92 E0                  ;zero the extruded length again
G1 F7200                ;set feedrate to 120 mm/s
; -- end of START GCODE --
;LAYER_COUNT:70
;LAYER:0
M107
G1 F1500 E-6.5
G0 F3600 X151.914 Y119.247 Z0.2
;TYPE:SKIRT
G1 F1500 E0
G1 F1200 X152.457 Y118.674 E0.02626
G1 X153.056 Y118.159 E0.05253
G1 X153.704 Y117.708 E0.07879
G1 X154.395 Y117.324 E0.10508
G1 X155.12 Y117.012 E0.13133
G1 X155.873 Y116.775 E0.15759
G1 X156.647 Y116.616 E0.18387
G1 X157.432 Y116.535 E0.21012
G1 X157.834 Y116.525 E0.22349
G1 X180.834 Y116.525 E0.98848
G1 X181.623 Y116.565 E1.01475
G1 X182.403 Y116.684 E1.041
G1 X183.168 Y116.882 E1.06728
G1 X183.908 Y117.156 E1.09352
G1 X184.617 Y117.504 E1.11979
G1 X185.288 Y117.922 E1.14609
G1 X185.912 Y118.405 E1.17233
G1 X186.485 Y118.948 E1.19859
G1 X187 Y119.547 E1.22486
G1 X187.451 Y120.195 E1.25112
G1 X187.835 Y120.886 E1.27741
G1 X188.147 Y121.611 E1.30366
G1 X188.384 Y122.364 E1.32992
G1 X188.543 Y123.138 E1.3562
G1 X188.624 Y123.923 E1.38245
G1 X188.634 Y124.325 E1.39582
G1 X188.634 Y159.325 E2.55993
G1 X188.594 Y160.114 E2.5862
G1 X188.475 Y160.894 E2.61245
G1 X188.277 Y161.659 E2.63873
G1 X188.003 Y162.399 E2.66498
G1 X187.655 Y163.108 E2.69124
G1 X187.237 Y163.779 E2.71754
G1 X186.754 Y164.403 E2.74378
G1 X186.211 Y164.976 E2.77004
G1 X185.612 Y165.491 E2.79631
G1 X184.964 Y165.942 E2.82257
G1 X184.273 Y166.326 E2.84887
G1 X183.548 Y166.638 E2.87512
G1 X182.795 Y166.875 E2.90137
G1 X182.021 Y167.034 E2.92765
G1 X181.236 Y167.115 E2.9539
G1 X180.834 Y167.125 E2.96728
G1 X180.592 Y167.125 E2.97533
G1 X180.475 Y167.894 E3.0012
G1 X180.277 Y168.659 E3.02748
G1 X180.003 Y169.399 E3.05373
G1 X179.655 Y170.108 E3.07999
G1 X179.237 Y170.779 E3.10629
G1 X178.754 Y171.403 E3.13253
G1 X178.211 Y171.976 E3.15879
G1 X177.612 Y172.491 E3.18506
G1 X176.964 Y172.942 E3.21132
G1 X176.273 Y173.326 E3.23762
G1 X175.548 Y173.638 E3.26387
G1 X174.795 Y173.875 E3.29012
G1 X174.021 Y174.034 E3.3164
G1 X173.236 Y174.115 E3.34265
G1 X172.834 Y174.125 E3.35603
G1 X165.834 Y174.125 E3.58885
G1 X165.045 Y174.085 E3.61512
G1 X164.265 Y173.966 E3.64137
G1 X163.5 Y173.768 E3.66765
G1 X162.76 Y173.494 E3.69389
G1 X162.051 Y173.146 E3.72016
G1 X161.38 Y172.728 E3.74646
G1 X160.756 Y172.245 E3.7727
G1 X160.183 Y171.702 E3.79896
G1 X159.668 Y171.103 E3.82523
G1 X159.217 Y170.455 E3.85149
G1 X158.833 Y169.764 E3.87778
G1 X158.521 Y169.039 E3.90404
G1 X158.284 Y168.286 E3.93029
G1 X158.125 Y167.512 E3.95657
G1 X158.085 Y167.125 E3.96951
G1 X157.834 Y167.125 E3.97786
G1 X157.045 Y167.085 E4.00414
G1 X156.265 Y166.966 E4.03038
G1 X155.5 Y166.768 E4.05666
G1 X154.76 Y166.494 E4.08291
G1 X154.051 Y166.146 E4.10918
G1 X153.38 Y165.728 E4.13547
G1 X152.756 Y165.245 E4.16172
G1 X152.183 Y164.702 E4.18797
G1 X151.668 Y164.103 E4.21425
G1 X151.217 Y163.455 E4.2405
G1 X150.833 Y162.764 E4.2668
G1 X150.521 Y162.039 E4.29305
G1 X150.284 Y161.286 E4.31931
G1 X150.125 Y160.512 E4.34559
G1 X150.044 Y159.727 E4.37183
G1 X150.034 Y159.325 E4.38521
G1 X150.034 Y124.325 E5.54931
G1 X150.074 Y123.536 E5.57559
G1 X150.193 Y122.756 E5.60183
G1 X150.391 Y121.991 E5.62812
G1 X150.665 Y121.251 E5.65436
G1 X151.013 Y120.542 E5.68063
G1 X151.431 Y119.871 E5.70692
G1 X151.914 Y119.247 E5.73317
G0 F3600 X152.309 Y119.402
G1 F1200 X152.85 Y118.855 E5.75876
G1 X153.445 Y118.367 E5.78435
G1 X154.087 Y117.944 E5.80992
G1 X154.77 Y117.589 E5.83553
G1 X155.485 Y117.308 E5.86108
G1 X156.227 Y117.102 E5.88669
G1 X156.985 Y116.974 E5.91226
G1 X157.834 Y116.925 E5.94054
G1 X180.834 Y116.925 E6.70553
G1 X181.602 Y116.965 E6.7311
G1 X182.362 Y117.084 E6.75669
G1 X183.105 Y117.282 E6.78226
G1 X183.824 Y117.556 E6.80786
G1 X184.51 Y117.903 E6.83343
G1 X185.157 Y118.319 E6.85901
G1 X185.757 Y118.8 E6.88459
G1 X186.304 Y119.341 E6.91017
G1 X186.792 Y119.936 E6.93577
G1 X187.215 Y120.578 E6.96134
G1 X187.57 Y121.261 E6.98694
G1 X187.851 Y121.976 E7.01249
G1 X188.057 Y122.718 E7.03811
G1 X188.185 Y123.476 E7.06367
G1 X188.234 Y124.325 E7.09196
G1 X188.234 Y159.325 E8.25606
G1 X188.194 Y160.093 E8.28164
G1 X188.075 Y160.853 E8.30723
G1 X187.877 Y161.596 E8.3328
G1 X187.603 Y162.315 E8.35839
G1 X187.256 Y163.001 E8.38396
G1 X186.84 Y163.648 E8.40955
G1 X186.359 Y164.248 E8.43512
G1 X185.818 Y164.795 E8.46071
G1 X185.223 Y165.283 E8.48631
G1 X184.581 Y165.706 E8.51188
G1 X183.898 Y166.061 E8.53748
G1 X183.183 Y166.342 E8.56303
G1 X182.441 Y166.548 E8.58864
G1 X181.683 Y166.676 E8.61421
G1 X180.834 Y166.725 E8.6425
G1 X180.213 Y166.725 E8.66315
G1 X180.194 Y167.093 E8.67541
G1 X180.075 Y167.853 E8.70099
G1 X179.877 Y168.596 E8.72657
G1 X179.603 Y169.315 E8.75216
G1 X179.256 Y170.001 E8.77773
G1 X178.84 Y170.648 E8.80331
G1 X178.359 Y171.248 E8.82889
G1 X177.818 Y171.795 E8.85448
G1 X177.223 Y172.283 E8.88007
G1 X176.581 Y172.706 E8.90564
G1 X175.898 Y173.061 E8.93125
G1 X175.183 Y173.342 E8.9568
G1 X174.441 Y173.548 E8.98241
G1 X173.683 Y173.676 E9.00798
G1 X172.834 Y173.725 E9.03626
G1 X165.834 Y173.725 E9.26908
G1 X165.066 Y173.685 E9.29466
G1 X164.306 Y173.566 E9.32025
G1 X163.563 Y173.368 E9.34582
G1 X162.844 Y173.094 E9.37141
G1 X162.158 Y172.747 E9.39698
G1 X161.511 Y172.331 E9.42257
G1 X160.911 Y171.85 E9.44814
G1 X160.364 Y171.309 E9.47373
G1 X159.876 Y170.714 E9.49933
G1 X159.453 Y170.072 E9.5249
G1 X159.098 Y169.389 E9.5505
G1 X158.817 Y168.674 E9.57605
G1 X158.611 Y167.932 E9.60166
G1 X158.483 Y167.174 E9.62723
G1 X158.457 Y166.725 E9.64219
G1 X157.834 Y166.725 E9.66291
G1 X157.066 Y166.685 E9.68849
G1 X156.306 Y166.566 E9.71408
G1 X155.563 Y166.368 E9.73965
G1 X154.844 Y166.094 E9.76524
G1 X154.158 Y165.747 E9.79081
G1 X153.511 Y165.331 E9.8164
G1 X152.911 Y164.85 E9.84197
G1 X152.364 Y164.309 E9.86756
G1 X151.876 Y163.714 E9.89316
G1 X151.453 Y163.072 E9.91873
G1 X151.098 Y162.389 E9.94433
G1 X150.817 Y161.674 E9.96988
G1 X150.611 Y160.932 E9.99549
G1 X150.483 Y160.174 E10.02106
G1 X150.434 Y159.325 E10.04935
G1 X150.434 Y124.325 E11.21345
G1 X150.474 Y123.557 E11.23903
G1 X150.593 Y122.797 E11.26462
G1 X150.791 Y122.054 E11.29019
G1 X151.065 Y121.335 E11.31578
G1 X151.412 Y120.649 E11.34135
G1 X151.828 Y120.002 E11.36693
G1 X152.309 Y119.402 E11.39251
G0 F3600 X152.705 Y119.562
G1 F1200 X153.242 Y119.041 E11.4174
G1 X153.832 Y118.582 E11.44226
G1 X154.468 Y118.187 E11.46716
G1 X155.142 Y117.863 E11.49203
G1 X155.847 Y117.613 E11.51691
G1 X156.575 Y117.439 E11.54181
G1 X157.317 Y117.344 E11.56669
G1 X157.834 Y117.325 E11.5839
G1 X180.834 Y117.325 E12.34888
G1 X181.581 Y117.365 E12.37376
G1 X182.319 Y117.484 E12.39862
G1 X183.041 Y117.682 E12.42352
G1 X183.737 Y117.955 E12.44839
G1 X184.4 Y118.302 E12.47328
G1 X185.023 Y118.717 E12.49818
G1 X185.597 Y119.196 E12.52304
G1 X186.118 Y119.733 E12.54793
G1 X186.577 Y120.323 E12.57279
G1 X186.972 Y120.959 E12.59769
G1 X187.296 Y121.633 E12.62256
G1 X187.546 Y122.338 E12.64744
G1 X187.72 Y123.066 E12.67234
G1 X187.815 Y123.808 E12.69722
G1 X187.834 Y124.325 E12.71443
G1 X187.834 Y159.325 E13.87853
G1 X187.794 Y160.072 E13.90341
G1 X187.675 Y160.81 E13.92827
G1 X187.477 Y161.532 E13.95317
G1 X187.204 Y162.228 E13.97804
G1 X186.857 Y162.891 E14.00293
G1 X186.442 Y163.514 E14.02783
G1 X185.963 Y164.088 E14.05269
G1 X185.426 Y164.609 E14.07758
G1 X184.836 Y165.068 E14.10244
G1 X184.2 Y165.463 E14.12734
G1 X183.526 Y165.787 E14.15222
G1 X182.821 Y166.037 E14.17709
G1 X182.093 Y166.211 E14.20199
G1 X181.351 Y166.306 E14.22687
G1 X180.834 Y166.325 E14.24408
G1 X179.834 Y166.325 E14.27734
G1 X179.794 Y167.072 E14.30222
G1 X179.675 Y167.81 E14.32708
G1 X179.477 Y168.532 E14.35198
G1 X179.204 Y169.228 E14.37685
G1 X178.857 Y169.891 E14.40174
G1 X178.442 Y170.514 E14.42663
G1 X177.963 Y171.088 E14.4515
G1 X177.426 Y171.609 E14.47639
G1 X176.836 Y172.068 E14.50125
G1 X176.2 Y172.463 E14.52615
G1 X175.526 Y172.787 E14.55102
G1 X174.821 Y173.037 E14.5759
G1 X174.093 Y173.211 E14.6008
G1 X173.351 Y173.306 E14.62568
G1 X172.834 Y173.325 E14.64288
G1 X165.834 Y173.325 E14.8757
G1 X165.087 Y173.285 E14.90059
G1 X164.349 Y173.166 E14.92545
G1 X163.627 Y172.968 E14.95035
G1 X162.931 Y172.695 E14.97522
G1 X162.268 Y172.348 E15.0001
G1 X161.645 Y171.933 E15.025
G1 X161.071 Y171.454 E15.04987
G1 X160.55 Y170.917 E15.07475
G1 X160.091 Y170.327 E15.09962
G1 X159.696 Y169.691 E15.12452
G1 X159.372 Y169.017 E15.14939
G1 X159.122 Y168.312 E15.17427
G1 X158.948 Y167.584 E15.19916
G1 X158.853 Y166.842 E15.22404
G1 X158.834 Y166.325 E15.24125
G1 X157.834 Y166.325 E15.27451
G1 X157.087 Y166.285 E15.29939
G1 X156.349 Y166.166 E15.32426
G1 X155.627 Y165.968 E15.34916
G1 X154.931 Y165.695 E15.37402
G1 X154.268 Y165.348 E15.39891
G1 X153.645 Y164.933 E15.42381
G1 X153.071 Y164.454 E15.44867
G1 X152.55 Y163.917 E15.47356
G1 X152.091 Y163.327 E15.49842
G1 X151.696 Y162.691 E15.52332
G1 X151.372 Y162.017 E15.5482
G1 X151.122 Y161.312 E15.57308
G1 X150.948 Y160.584 E15.59797
G1 X150.853 Y159.842 E15.62285
G1 X150.834 Y159.325 E15.64006
G1 X150.834 Y124.325 E16.80416
G1 X150.874 Y123.578 E16.82904
G1 X150.993 Y122.84 E16.85391
G1 X151.191 Y122.118 E16.87881
G1 X151.464 Y121.422 E16.90367
G1 X151.811 Y120.759 E16.92856
G1 X152.226 Y120.136 E16.95346
G1 X152.705 Y119.562 E16.97833
G0 F3600 X153.099 Y119.727
G1 F1200 X153.633 Y119.234 E17.0025
G1 X154.218 Y118.804 E17.02665
G1 X154.847 Y118.44 E17.05082
G1 X155.512 Y118.147 E17.07499
G1 X156.205 Y117.929 E17.09915
G1 X156.917 Y117.789 E17.12328
G1 X157.834 Y117.725 E17.15386
G1 X180.834 Y117.725 E17.91884
G1 X181.559 Y117.765 E17.94299
G1 X182.276 Y117.884 E17.96717
G1 X182.975 Y118.082 E17.99133
G1 X183.648 Y118.355 E18.01548
G1 X184.287 Y118.7 E18.03964
G1 X184.884 Y119.114 E18.0638
G1 X185.432 Y119.59 E18.08794
G1 X185.925 Y120.124 E18.11212
G1 X186.355 Y120.709 E18.13626
G1 X186.719 Y121.338 E18.16044
G1 X187.012 Y122.003 E18.18461
G1 X187.23 Y122.696 E18.20877
G1 X187.37 Y123.408 E18.2329
G1 X187.434 Y124.325 E18.26348
G1 X187.434 Y159.325 E19.42758
G1 X187.394 Y160.05 E19.45173
G1 X187.275 Y160.767 E19.47591
G1 X187.077 Y161.466 E19.50007
G1 X186.804 Y162.139 E19.52422
G1 X186.459 Y162.778 E19.54838
G1 X186.045 Y163.375 E19.57254
G1 X185.569 Y163.923 E19.59668
G1 X185.035 Y164.416 E19.62086
G1 X184.45 Y164.846 E19.645
G1 X183.821 Y165.21 E19.66918
G1 X183.156 Y165.503 E19.69335
G1 X182.463 Y165.721 E19.71751
G1 X181.751 Y165.861 E19.74164
G1 X180.834 Y165.925 E19.77222
G1 X179.434 Y165.925 E19.81878
G1 X179.434 Y166.325 E19.83208
G1 X179.394 Y167.05 E19.85623
G1 X179.275 Y167.767 E19.88041
G1 X179.077 Y168.466 E19.90457
G1 X178.804 Y169.139 E19.92873
G1 X178.459 Y169.778 E19.95288
G1 X178.045 Y170.375 E19.97704
G1 X177.569 Y170.923 E20.00119
G1 X177.035 Y171.416 E20.02536
G1 X176.45 Y171.846 E20.04951
G1 X175.821 Y172.21 E20.07368
G1 X175.156 Y172.503 E20.09785
G1 X174.463 Y172.721 E20.12201
G1 X173.751 Y172.861 E20.14615
G1 X172.834 Y172.925 E20.17672
G1 X165.834 Y172.925 E20.40954
G1 X165.109 Y172.885 E20.43369
G1 X164.392 Y172.766 E20.45786
G1 X163.693 Y172.568 E20.48203
G1 X163.02 Y172.295 E20.50618
G1 X162.381 Y171.95 E20.53034
G1 X161.784 Y171.536 E20.5545
G1 X161.236 Y171.06 E20.57864
G1 X160.743 Y170.526 E20.60282
G1 X160.313 Y169.941 E20.62696
G1 X159.949 Y169.312 E20.65113
G1 X159.656 Y168.647 E20.6753
G1 X159.438 Y167.954 E20.69947
G1 X159.298 Y167.242 E20.7236
G1 X159.234 Y166.325 E20.75418
G1 X159.234 Y165.925 E20.76748
G1 X157.834 Y165.925 E20.81404
G1 X157.109 Y165.885 E20.83819
G1 X156.392 Y165.766 E20.86237
G1 X155.693 Y165.568 E20.88653
G1 X155.02 Y165.295 E20.91069
G1 X154.381 Y164.95 E20.93484
G1 X153.784 Y164.536 E20.959
G1 X153.236 Y164.06 E20.98315
G1 X152.743 Y163.526 E21.00732
G1 X152.313 Y162.941 E21.03147
G1 X151.949 Y162.312 E21.05564
G1 X151.656 Y161.647 E21.07981
G1 X151.438 Y160.954 E21.10397
G1 X151.298 Y160.242 E21.1281
G1 X151.234 Y159.325 E21.15868
G1 X151.234 Y124.325 E22.32278
G1 X151.274 Y123.6 E22.34693
G1 X151.393 Y122.883 E22.37111
G1 X151.591 Y122.184 E22.39527
G1 X151.864 Y121.511 E22.41943
G1 X152.209 Y120.872 E22.44358
G1 X152.623 Y120.275 E22.46774
G1 X153.099 Y119.727 E22.49189
G0 F3600 X153.493 Y119.898
G1 F1200 X154.023 Y119.434 E22.51531
G1 X154.602 Y119.034 E22.53872
G1 X155.223 Y118.702 E22.56214
G1 X155.877 Y118.442 E22.58555
G1 X156.557 Y118.258 E22.60898
G1 X157.253 Y118.152 E22.6324
G1 X157.834 Y118.125 E22.65174
G1 X180.834 Y118.125 E23.41672
G1 X181.537 Y118.165 E23.44014
G1 X182.231 Y118.284 E23.46356
G1 X182.906 Y118.482 E23.48696
G1 X183.555 Y118.754 E23.51036
G1 X184.169 Y119.099 E23.53379
G1 X184.74 Y119.51 E23.55719
G1 X185.261 Y119.984 E23.58062
G1 X185.725 Y120.514 E23.60404
G1 X186.125 Y121.093 E23.62745
G1 X186.457 Y121.714 E23.65087
G1 X186.717 Y122.368 E23.67428
G1 X186.901 Y123.048 E23.69771
G1 X187.007 Y123.744 E23.72113
G1 X187.034 Y124.325 E23.74047
G1 X187.034 Y159.325 E24.90458
G1 X186.994 Y160.028 E24.928
G1 X186.875 Y160.722 E24.95141
G1 X186.677 Y161.397 E24.97481
G1 X186.405 Y162.046 E24.99822
G1 X186.06 Y162.66 E25.02164
G1 X185.649 Y163.231 E25.04504
G1 X185.175 Y163.752 E25.06847
G1 X184.645 Y164.216 E25.0919
G1 X184.066 Y164.616 E25.1153
G1 X183.445 Y164.948 E25.13872
G1 X182.791 Y165.208 E25.16213
G1 X182.111 Y165.392 E25.18556
G1 X181.415 Y165.498 E25.20898
G1 X180.834 Y165.525 E25.22832
G1 X179.034 Y165.525 E25.28819
G1 X179.034 Y166.325 E25.3148
G1 X178.994 Y167.028 E25.33822
G1 X178.875 Y167.722 E25.36164
G1 X178.677 Y168.397 E25.38504
G1 X178.405 Y169.046 E25.40844
G1 X178.06 Y169.66 E25.43186
G1 X177.649 Y170.231 E25.45526
G1 X177.175 Y170.752 E25.47869
G1 X176.645 Y171.216 E25.50212
G1 X176.066 Y171.616 E25.52553
G1 X175.445 Y171.948 E25.54895
G1 X174.791 Y172.208 E25.57236
G1 X174.111 Y172.392 E25.59579
G1 X173.415 Y172.498 E25.6192
G1 X172.834 Y172.525 E25.63855
G1 X165.834 Y172.525 E25.87137
G1 X165.131 Y172.485 E25.89479
G1 X164.437 Y172.366 E25.91821
G1 X163.762 Y172.168 E25.9416
G1 X163.113 Y171.896 E25.96501
G1 X162.499 Y171.551 E25.98843
G1 X161.928 Y171.14 E26.01183
G1 X161.407 Y170.666 E26.03526
G1 X160.943 Y170.136 E26.05869
G1 X160.543 Y169.557 E26.08209
G1 X160.211 Y168.936 E26.10552
G1 X159.951 Y168.282 E26.12892
G1 X159.767 Y167.602 E26.15235
G1 X159.661 Y166.906 E26.17577
G1 X159.634 Y166.325 E26.19512
G1 X159.634 Y165.525 E26.22172
G1 X157.834 Y165.525 E26.28159
G1 X157.131 Y165.485 E26.30501
G1 X156.437 Y165.366 E26.32843
G1 X155.762 Y165.168 E26.35183
G1 X155.113 Y164.896 E26.37523
G1 X154.499 Y164.551 E26.39866
G1 X153.928 Y164.14 E26.42206
G1 X153.407 Y163.666 E26.44548
G1 X152.943 Y163.136 E26.46891
G1 X152.543 Y162.557 E26.49232
G1 X152.211 Y161.936 E26.51574
G1 X151.951 Y161.282 E26.53915
G1 X151.767 Y160.602 E26.56258
G1 X151.661 Y159.906 E26.58599
G1 X151.634 Y159.325 E26.60534
G1 X151.634 Y124.325 E27.76944
G1 X151.674 Y123.622 E27.79286
G1 X151.793 Y122.928 E27.81628
G1 X151.991 Y122.253 E27.83968
G1 X152.263 Y121.604 E27.86308
G1 X152.608 Y120.99 E27.88651
G1 X153.019 Y120.419 E27.90991
G1 X153.493 Y119.898 E27.93334
G0 F3600 X153.887 Y120.076
G1 F1200 X154.412 Y119.642 E27.95599
G1 X154.984 Y119.273 E27.97863
G1 X155.596 Y118.974 E28.00129
G1 X156.238 Y118.749 E28.02391
G1 X156.903 Y118.6 E28.04658
G1 X157.834 Y118.525 E28.07764
G1 X180.834 Y118.525 E28.84263
G1 X181.514 Y118.565 E28.86528
G1 X182.184 Y118.684 E28.88792
G1 X182.836 Y118.881 E28.91057
G1 X183.46 Y119.153 E28.93321
G1 X184.048 Y119.497 E28.95587
G1 X184.592 Y119.907 E28.97853
G1 X185.083 Y120.378 E29.00115
G1 X185.517 Y120.903 E29.02381
G1 X185.886 Y121.475 E29.04645
G1 X186.185 Y122.087 E29.0691
G1 X186.41 Y122.729 E29.09173
