;FLAVOR:RepRap
;TIME:15429
;Filament used: 12.076m
;Layer height: 0.2
;Generated with Cura_SteamEngine 2.4.0
M104 S205
M109 S205
; -- START GCODE --
G21                     ;set units to millimetres
G90                     ;set to absolute positioning
M106 S0                 ;set fan speed to zero (turned off)
G28 X0 Y0               ;move to the X/Y origin (Home)
G28 Z0                  ;move to the Z origin (Home)
G1 Z15.0 F1200          ;move Z to position 15.0 mm
G92 E0                  ;zero the extruded length
G1 E20 F200             ;extrude 20mm of feed stock
G92 E0                  ;zero the extruded length again
G1 F7200                ;set feedrate to 120 mm/s
; -- end of START GCODE --
;LAYER_COUNT:65
;LAYER:0
M107
G1 F1500 E-6.5
G0 F3600 X54.12 Y67.014 Z0.2
;TYPE:SKIRT
G1 F1500 E0
G1 F1200 X54.763 Y66.556 E0.02626
G1 X55.449 Y66.165 E0.05252
G1 X56.172 Y65.846 E0.0788
G1 X56.993 Y65.582 E0.10749
G1 X57.537 Y65.44 E0.12619
G1 X58.31 Y65.279 E0.15245
G1 X59.096 Y65.198 E0.17873
G1 X59.507 Y65.187 E0.1924
G1 X73.112 Y65.187 E0.64491
G1 X73.5 Y64.878 E0.66141
G1 X74.164 Y64.451 E0.68766
G1 X74.868 Y64.093 E0.71393
G1 X75.605 Y63.809 E0.7402
G1 X76.223 Y63.633 E0.76157
G1 X76.698 Y63.519 E0.77782
G1 X77.474 Y63.374 E0.80408
G1 X78.53 Y63.304 E0.83928
G1 X98.76 Y63.334 E1.51213
G1 X99.548 Y63.375 E1.53837
G1 X100.329 Y63.496 E1.56466
G1 X101.093 Y63.695 E1.59092
G1 X101.833 Y63.97 E1.61718
G1 X102.429 Y64.257 E1.63918
G1 X102.855 Y64.485 E1.65525
G1 X103.531 Y64.892 E1.68149
G1 X103.924 Y65.187 E1.69784
G1 X107.111 Y65.187 E1.80384
G1 X107.459 Y64.907 E1.81869
G1 X108.121 Y64.476 E1.84497
G1 X108.823 Y64.114 E1.87124
G1 X109.558 Y63.825 E1.8975
G1 X110.163 Y63.649 E1.91846
G1 X110.631 Y63.533 E1.9345
G1 X111.407 Y63.382 E1.96079
G1 X112.52 Y63.304 E1.9979
G1 X132.756 Y63.336 E2.67095
G1 X133.545 Y63.377 E2.69723
G1 X134.325 Y63.498 E2.72348
G1 X135.09 Y63.697 E2.74978
G1 X135.83 Y63.972 E2.77603
G1 X136.348 Y64.219 E2.79512
G1 X136.776 Y64.442 E2.81117
G1 X137.457 Y64.841 E2.83742
G1 X137.941 Y65.196 E2.85739
G1 X151.797 Y65.226 E3.31824
G1 X152.585 Y65.268 E3.34449
G1 X153.366 Y65.389 E3.37077
G1 X154.13 Y65.588 E3.39703
G1 X154.594 Y65.751 E3.41339
G1 X154.837 Y65.845 E3.42205
G1 X155.558 Y66.167 E3.44832
G1 X156.243 Y66.56 E3.47458
G1 X156.885 Y67.021 E3.50087
G1 X157.365 Y67.436 E3.52198
G1 X157.764 Y67.811 E3.54019
G1 X158.311 Y68.381 E3.56646
G1 X158.798 Y69.002 E3.59271
G1 X159.22 Y69.67 E3.61899
G1 X159.572 Y70.377 E3.64526
G1 X159.919 Y71.343 E3.6794
G1 X160.072 Y71.876 E3.69784
G1 X160.251 Y72.645 E3.7241
G1 X160.361 Y73.56 E3.75476
G1 X160.472 Y75.407 E3.8163
G1 X160.479 Y76.197 E3.84258
G1 X160.407 Y76.983 E3.86883
G1 X160.357 Y77.238 E3.87747
G1 X160.478 Y79.934 E3.96723
G1 X160.474 Y80.724 E3.99351
G1 X160.389 Y81.509 E4.01977
G1 X160.357 Y81.659 E4.02487
G1 X160.478 Y84.352 E4.11453
G1 X160.474 Y85.142 E4.1408
G1 X160.434 Y85.513 E4.15322
G1 X161.103 Y85.69 E4.17623
G1 X161.843 Y85.968 E4.20252
G1 X162.319 Y86.194 E4.22005
G1 X162.744 Y86.414 E4.23597
G1 X163.426 Y86.812 E4.26223
G1 X164.064 Y87.277 E4.28849
G1 X164.652 Y87.804 E4.31475
G1 X165.184 Y88.388 E4.34103
G1 X165.71 Y89.109 E4.37071
G1 X165.98 Y89.527 E4.38726
G1 X166.374 Y90.211 E4.41351
G1 X166.697 Y90.932 E4.43979
G1 X166.946 Y91.681 E4.46604
G1 X167.118 Y92.452 E4.49232
G1 X167.213 Y93.279 E4.52001
G1 X167.47 Y97.448 E4.65893
G1 X167.479 Y98.238 E4.68521
G1 X167.408 Y99.024 E4.71146
G1 X167.355 Y99.297 E4.72071
G1 X167.475 Y101.996 E4.81056
G1 X167.47 Y102.786 E4.83684
G1 X167.386 Y103.571 E4.8631
G1 X167.356 Y103.713 E4.86792
G1 X167.477 Y106.419 E4.95802
G1 X167.473 Y107.209 E4.98429
G1 X167.388 Y107.994 E5.01055
G1 X167.356 Y108.145 E5.01569
G1 X167.476 Y110.836 E5.10528
G1 X167.471 Y111.625 E5.13152
G1 X167.387 Y112.41 E5.15778
G1 X167.356 Y112.555 E5.16271
G1 X167.476 Y115.255 E5.2526
G1 X167.471 Y116.044 E5.27885
G1 X167.386 Y116.829 E5.30511
G1 X167.357 Y116.966 E5.30977
G1 X167.473 Y119.649 E5.39909
G1 X167.467 Y120.439 E5.42536
G1 X167.381 Y121.224 E5.45163
G1 X167.216 Y121.996 E5.47788
G1 X166.975 Y122.748 E5.50415
G1 X166.658 Y123.472 E5.53044
G1 X166.092 Y124.427 E5.56736
G1 X165.619 Y125.11 E5.59499
G1 X165.138 Y125.735 E5.62122
G1 X164.595 Y126.309 E5.6475
G1 X163.997 Y126.825 E5.67377
G1 X163.312 Y127.302 E5.70154
G1 X162.866 Y127.578 E5.71898
G1 X162.174 Y127.959 E5.74526
G1 X161.447 Y128.268 E5.77153
G1 X160.693 Y128.502 E5.79779
G1 X160.409 Y128.56 E5.80743
G1 X160.406 Y128.772 E5.81448
G1 X160.313 Y129.556 E5.84074
G1 X160.142 Y130.327 E5.86701
G1 X159.893 Y131.076 E5.89326
G1 X159.57 Y131.797 E5.91953
G1 X159.176 Y132.481 E5.94579
G1 X158.976 Y132.759 E5.95718
G1 X158.988 Y132.781 E5.95801
G1 X159.332 Y133.595 E5.9874
G1 X159.475 Y133.995 E6.00153
G1 X159.703 Y134.751 E6.0278
G1 X159.895 Y135.88 E6.06589
G1 X160.025 Y137.243 E6.11143
G1 X160.06 Y138.032 E6.13769
G1 X160.015 Y138.821 E6.16398
G1 X159.893 Y139.591 E6.18991
G1 X159.813 Y139.971 E6.20282
G1 X159.611 Y140.734 E6.22908
G1 X159.333 Y141.474 E6.25537
G1 X158.982 Y142.181 E6.28162
G1 X158.561 Y142.849 E6.30788
G1 X157.946 Y143.617 E6.34061
G1 X157.67 Y143.92 E6.35424
G1 X157.11 Y144.476 E6.38049
G1 X156.496 Y144.972 E6.40674
G1 X155.835 Y145.404 E6.433
G1 X155.133 Y145.767 E6.45929
G1 X154.399 Y146.057 E6.48554
G1 X153.994 Y146.182 E6.49964
G1 X153.577 Y146.298 E6.51403
G1 X152.807 Y146.471 E6.54028
G1 X152.023 Y146.565 E6.56654
G1 X151.484 Y146.583 E6.58448
G1 X59.287 Y146.551 E9.65097
G1 X58.499 Y146.511 E9.67721
G1 X57.718 Y146.391 E9.70349
G1 X56.954 Y146.193 E9.72974
G1 X56.213 Y145.919 E9.75602
G1 X55.199 Y145.392 E9.79402
G1 X54.85 Y145.177 E9.80766
G1 X54.199 Y144.729 E9.83394
G1 X53.597 Y144.218 E9.86021
G1 X53.05 Y143.649 E9.88646
G1 X52.564 Y143.027 E9.91271
G1 X51.995 Y142.085 E9.94931
G1 X51.807 Y141.717 E9.96306
G1 X51.484 Y140.996 E9.98934
G1 X51.235 Y140.247 E10.01559
G1 X51.063 Y139.476 E10.04186
G1 X50.971 Y138.692 E10.06812
G1 X50.976 Y137.571 E10.1054
G1 X51.095 Y136.022 E10.15707
G1 X51.195 Y135.238 E10.18336
G1 X51.374 Y134.469 E10.20962
G1 X51.516 Y134.025 E10.22513
G1 X51.656 Y133.628 E10.23913
G1 X51.956 Y132.897 E10.26541
G1 X52.024 Y132.769 E10.27023
G1 X51.758 Y132.387 E10.28571
G1 X51.374 Y131.697 E10.31198
G1 X51.063 Y130.971 E10.33824
G1 X50.826 Y130.218 E10.3645
G1 X50.666 Y129.445 E10.39076
G1 X50.585 Y128.659 E10.41704
G1 X50.585 Y128.604 E10.41887
G1 X50.457 Y128.498 E10.42439
G1 X49.903 Y127.936 E10.45064
G1 X49.408 Y127.32 E10.47692
G1 X48.863 Y126.45 E10.51107
G1 X48.598 Y125.958 E10.52966
G1 X48.259 Y125.244 E10.55594
G1 X47.994 Y124.501 E10.58218
G1 X47.806 Y123.734 E10.60845
G1 X47.696 Y122.952 E10.63471
G1 X47.67 Y121.99 E10.66672
G1 X47.684 Y121.577 E10.68047
G1 X47.619 Y121.275 E10.69074
G1 X47.531 Y120.49 E10.71701
G1 X47.524 Y119.667 E10.74439
G1 X47.643 Y116.977 E10.83394
G1 X47.618 Y116.862 E10.83786
G1 X47.53 Y116.078 E10.8641
G1 X47.524 Y115.256 E10.89144
G1 X47.643 Y112.581 E10.9805
G1 X47.624 Y112.493 E10.98349
G1 X47.532 Y111.709 E11.00975
G1 X47.523 Y110.843 E11.03855
G1 X47.643 Y108.163 E11.12778
G1 X47.627 Y108.092 E11.1302
G1 X47.533 Y107.308 E11.15646
G1 X47.523 Y106.424 E11.18587
G1 X47.643 Y103.745 E11.27506
G1 X47.627 Y103.674 E11.27748
G1 X47.533 Y102.89 E11.30374
G1 X47.523 Y102.006 E11.33315
G1 X47.643 Y99.332 E11.42217
G1 X47.627 Y99.261 E11.42459
G1 X47.533 Y98.477 E11.45086
G1 X47.523 Y97.592 E11.48029
G1 X47.643 Y94.913 E11.56949
G1 X47.632 Y94.863 E11.57119
G1 X47.535 Y94.079 E11.59746
G1 X47.523 Y93.168 E11.62777
G1 X47.643 Y90.505 E11.71643
G1 X47.627 Y90.435 E11.71882
G1 X47.533 Y89.651 E11.74508
G1 X47.535 Y88.561 E11.78133
G1 X47.614 Y87.454 E11.81825
G1 X47.71 Y86.67 E11.84452
G1 X47.922 Y85.772 E11.8752
G1 X48.081 Y85.241 E11.89364
G1 X48.345 Y84.496 E11.91993
G1 X48.684 Y83.783 E11.94619
G1 X49.093 Y83.107 E11.97247
G1 X49.568 Y82.477 E11.99871
G1 X50.179 Y81.825 E12.02843
G1 X50.584 Y81.44 E12.04701
G1 X50.605 Y81.422 E12.04793
G1 X50.532 Y80.789 E12.06913
G1 X50.523 Y79.937 E12.09747
G1 X50.64 Y77.273 E12.18616
G1 X50.625 Y77.205 E12.18847
G1 X50.531 Y76.421 E12.21474
G1 X50.526 Y75.441 E12.24733
G1 X50.633 Y73.563 E12.30989
G1 X50.717 Y72.778 E12.33615
G1 X50.96 Y71.73 E12.37193
G1 X51.112 Y71.232 E12.38925
G1 X51.38 Y70.489 E12.41552
G1 X51.722 Y69.778 E12.44176
G1 X52.135 Y69.104 E12.46806
G1 X52.613 Y68.476 E12.49431
G1 X53.136 Y67.915 E12.51981
G1 X53.527 Y67.535 E12.53795
G1 X54.12 Y67.014 E12.5642
G0 F3600 X54.384 Y67.316
G1 F1200 X55.012 Y66.872 E12.58978
G1 X55.683 Y66.495 E12.61538
G1 X56.39 Y66.191 E12.64098
G1 X57.094 Y65.969 E12.66553
G1 X57.638 Y65.827 E12.68423
G1 X58.391 Y65.672 E12.7098
G1 X59.507 Y65.587 E12.74703
G1 X73.25 Y65.587 E13.20412
G1 X73.749 Y65.191 E13.22531
G1 X74.398 Y64.778 E13.25089
G1 X75.086 Y64.435 E13.27646
G1 X75.806 Y64.164 E13.30205
G1 X76.316 Y64.022 E13.31966
G1 X76.791 Y63.908 E13.33591
G1 X77.547 Y63.768 E13.36148
G1 X78.529 Y63.704 E13.39421
G1 X98.759 Y63.734 E14.06706
G1 X99.527 Y63.775 E14.09264
G1 X100.287 Y63.896 E14.11824
G1 X101.03 Y64.095 E14.14382
G1 X101.748 Y64.369 E14.16938
G1 X102.24 Y64.61 E14.1876
G1 X102.666 Y64.838 E14.20367
G1 X103.324 Y65.235 E14.22923
G1 X103.79 Y65.587 E14.24866
G1 X107.253 Y65.587 E14.36384
G1 X107.71 Y65.219 E14.38335
G1 X108.357 Y64.802 E14.40896
G1 X109.043 Y64.454 E14.43454
G1 X109.761 Y64.18 E14.4601
G1 X110.26 Y64.037 E14.47737
G1 X110.728 Y63.921 E14.4934
G1 X111.483 Y63.775 E14.51898
G1 X112.52 Y63.704 E14.55355
G1 X132.756 Y63.736 E15.2266
G1 X133.524 Y63.777 E15.25218
G1 X134.283 Y63.898 E15.27775
G1 X135.026 Y64.097 E15.30333
G1 X135.745 Y64.372 E15.32893
G1 X136.163 Y64.573 E15.34436
G1 X136.591 Y64.796 E15.36041
G1 X137.254 Y65.187 E15.38601
G1 X137.808 Y65.596 E15.40892
G1 X151.796 Y65.626 E15.87416
G1 X152.564 Y65.668 E15.89974
G1 X153.324 Y65.789 E15.92534
G1 X154.067 Y65.988 E15.95092
G1 X154.45 Y66.124 E15.96444
G1 X154.693 Y66.218 E15.9731
G1 X155.395 Y66.533 E15.9987
G1 X156.06 Y66.918 E16.02425
G1 X156.682 Y67.371 E16.04985
G1 X157.091 Y67.728 E16.0679
G1 X157.49 Y68.103 E16.08612
G1 X158.022 Y68.658 E16.11169
G1 X158.494 Y69.265 E16.13726
G1 X158.9 Y69.918 E16.16283
G1 X159.237 Y70.61 E16.18843
G1 X159.535 Y71.453 E16.21817
G1 X159.688 Y71.986 E16.23662
G1 X159.861 Y72.736 E16.26222
G1 X159.962 Y73.584 E16.29062
G1 X160.073 Y75.431 E16.35216
G1 X160.079 Y76.2 E16.37774
G1 X160.005 Y76.966 E16.40334
G1 X159.956 Y77.208 E16.41155
G1 X160.079 Y79.952 E16.50291
G1 X160.073 Y80.721 E16.52848
G1 X159.988 Y81.486 E16.55408
G1 X159.956 Y81.631 E16.55902
G1 X160.079 Y84.37 E16.65021
G1 X160.073 Y85.139 E16.67579
G1 X159.995 Y85.839 E16.69922
G1 X160.297 Y85.888 E16.70939
G1 X161.039 Y86.089 E16.73496
G1 X161.756 Y86.367 E16.76054
G1 X162.135 Y86.549 E16.77452
G1 X162.56 Y86.769 E16.79044
G1 X163.224 Y87.158 E16.81604
G1 X163.843 Y87.613 E16.84159
G1 X164.413 Y88.131 E16.86721
G1 X164.925 Y88.704 E16.89276
G1 X165.374 Y89.326 E16.91828
G1 X165.644 Y89.744 E16.93483
G1 X166.027 Y90.411 E16.96041
G1 X166.339 Y91.114 E16.98599
G1 X166.576 Y91.846 E17.01158
G1 X166.736 Y92.598 E17.03715
G1 X166.814 Y93.304 E17.06078
G1 X167.071 Y97.473 E17.1997
G1 X167.078 Y98.242 E17.22528
G1 X167.006 Y99.008 E17.25087
G1 X166.954 Y99.268 E17.25969
G1 X167.076 Y102.014 E17.35111
G1 X167.07 Y102.783 E17.37669
G1 X166.984 Y103.547 E17.40226
G1 X166.955 Y103.681 E17.40682
G1 X167.078 Y106.437 E17.49858
G1 X167.072 Y107.206 E17.52416
G1 X166.987 Y107.971 E17.54976
G1 X166.955 Y108.117 E17.55473
G1 X167.077 Y110.853 E17.64582
G1 X167.071 Y111.623 E17.67143
G1 X166.985 Y112.387 E17.697
G1 X166.955 Y112.523 E17.70163
G1 X167.077 Y115.272 E17.79315
G1 X167.071 Y116.042 E17.81877
G1 X166.985 Y116.806 E17.84434
G1 X166.955 Y116.941 E17.84894
G1 X167.073 Y119.667 E17.93969
G1 X167.066 Y120.436 E17.96527
G1 X166.98 Y121.2 E17.99084
G1 X166.814 Y121.951 E18.01642
G1 X166.572 Y122.681 E18.042
G1 X166.255 Y123.382 E18.06759
G1 X165.764 Y124.199 E18.09929
G1 X165.291 Y124.882 E18.12692
G1 X164.82 Y125.491 E18.15253
G1 X164.29 Y126.047 E18.17808
G1 X163.704 Y126.546 E18.20368
G1 X163.101 Y126.962 E18.22804
G1 X162.655 Y127.238 E18.24549
G1 X161.981 Y127.608 E18.27106
G1 X161.272 Y127.906 E18.29664
G1 X160.536 Y128.129 E18.32222
G1 X160.015 Y128.229 E18.33986
G1 X160.005 Y128.765 E18.35769
G1 X159.912 Y129.528 E18.38326
G1 X159.74 Y130.278 E18.40885
G1 X159.491 Y131.006 E18.43444
G1 X159.168 Y131.704 E18.46002
G1 X158.774 Y132.365 E18.48562
G1 X158.501 Y132.73 E18.50078
G1 X158.723 Y133.157 E18.51678
G1 X158.955 Y133.73 E18.53734
G1 X159.098 Y134.13 E18.55147
G1 X159.319 Y134.867 E18.57706
G1 X159.497 Y135.918 E18.61252
G1 X159.627 Y137.281 E18.65806
G1 X159.66 Y138.05 E18.68366
G1 X159.613 Y138.818 E18.70925
G1 X159.501 Y139.508 E18.7325
G1 X159.421 Y139.888 E18.74542
G1 X159.224 Y140.632 E18.77101
G1 X158.95 Y141.351 E18.79661
G1 X158.604 Y142.037 E18.82216
G1 X158.188 Y142.684 E18.84774
G1 X157.651 Y143.347 E18.87612
G1 X157.375 Y143.65 E18.88975
G1 X156.828 Y144.191 E18.91534
G1 X156.228 Y144.672 E18.94092
G1 X155.581 Y145.089 E18.96652
G1 X154.895 Y145.436 E18.99209
G1 X153.887 Y145.796 E19.02769
G1 X153.47 Y145.912 E19.04209
G1 X152.719 Y146.08 E19.06768
G1 X151.955 Y146.168 E19.09326
G1 X151.484 Y146.183 E19.10893
G1 X59.287 Y146.151 E22.17542
G1 X58.519 Y146.111 E22.201
G1 X57.76 Y145.991 E22.22655
G1 X57.016 Y145.793 E22.25216
G1 X56.298 Y145.519 E22.27772
G1 X55.409 Y145.051 E22.31114
G1 X55.06 Y144.836 E22.32477
G1 X54.427 Y144.399 E22.35035
G1 X53.842 Y143.899 E22.37595
G1 X53.313 Y143.341 E22.40152
G1 X52.845 Y142.731 E22.4271
G1 X52.351 Y141.903 E22.45916
G1 X52.163 Y141.535 E22.47291
G1 X51.849 Y140.832 E22.49852
G1 X51.61 Y140.101 E22.5241
G1 X51.448 Y139.349 E22.54968
G1 X51.365 Y138.585 E22.57524
G1 X51.375 Y137.601 E22.60797
G1 X51.494 Y136.052 E22.65964
G1 X51.592 Y135.289 E22.68523
G1 X51.77 Y134.541 E22.7108
G1 X51.893 Y134.158 E22.72418
G1 X52.033 Y133.761 E22.73818
G1 X52.326 Y133.05 E22.76376
G1 X52.494 Y132.74 E22.77549
G1 X52.417 Y132.646 E22.77953
G1 X51.994 Y132.004 E22.8051
G1 X51.639 Y131.322 E22.83067
G1 X51.358 Y130.606 E22.85626
G1 X51.152 Y129.865 E22.88184
G1 X51.024 Y129.106 E22.90744
G1 X50.997 Y128.427 E22.93004
G1 X50.698 Y128.177 E22.943
G1 X50.162 Y127.625 E22.96859
G1 X49.686 Y127.021 E22.99417
G1 X49.215 Y126.26 E23.02394
G1 X48.95 Y125.768 E23.04252
G1 X48.621 Y125.073 E23.0681
G1 X48.366 Y124.347 E23.09369
G1 X48.187 Y123.599 E23.11927
G1 X48.088 Y122.836 E23.14486
G1 X48.069 Y122.004 E23.17254
G1 X48.085 Y121.537 E23.18808
G1 X48.001 Y121.131 E23.20187
G1 X47.925 Y120.366 E23.22744
G1 X47.923 Y119.684 E23.25013
G1 X48.044 Y116.936 E23.34161
G1 X48.003 Y116.739 E23.34831
G1 X47.925 Y115.973 E23.37392
G1 X47.923 Y115.274 E23.39716
G1 X48.045 Y112.536 E23.48832
G1 X48.009 Y112.367 E23.49407
G1 X47.926 Y111.603 E23.51963
G1 X47.922 Y110.861 E23.54431
G1 X48.045 Y108.117 E23.63567
G1 X48.012 Y107.965 E23.64084
G1 X47.927 Y107.2 E23.66644
G1 X47.922 Y106.442 E23.69165
G1 X48.045 Y103.699 E23.78298
G1 X48.012 Y103.547 E23.78815
G1 X47.927 Y102.782 E23.81375
G1 X47.922 Y102.023 E23.83899
G1 X48.045 Y99.285 E23.93015
G1 X48.012 Y99.134 E23.93529
G1 X47.927 Y98.369 E23.96089
G1 X47.922 Y97.61 E23.98614
G1 X48.045 Y94.868 E24.07743
G1 X48.016 Y94.735 E24.08196
G1 X47.929 Y93.97 E24.10757
G1 X47.922 Y93.186 E24.13364
G1 X48.045 Y90.459 E24.22443
G1 X48.012 Y90.308 E24.22958
G1 X47.927 Y89.543 E24.25518
G1 X47.934 Y88.589 E24.28691
G1 X48.013 Y87.482 E24.32382
G1 X48.107 Y86.719 E24.34939
G1 X48.305 Y85.886 E24.37787
G1 X48.464 Y85.355 E24.3963
G1 X48.723 Y84.631 E24.42188
G1 X49.055 Y83.937 E24.44747
G1 X49.458 Y83.282 E24.47304
G1 X49.926 Y82.672 E24.49862
G1 X50.455 Y82.115 E24.52417
G1 X50.86 Y81.73 E24.54275
G1 X51.036 Y81.579 E24.55046
G1 X51.008 Y81.448 E24.55492
G1 X50.926 Y80.683 E24.58051
G1 X50.922 Y79.955 E24.60472
G1 X51.042 Y77.226 E24.69558
G1 X51.01 Y77.078 E24.70061
G1 X50.925 Y76.313 E24.72621
G1 X50.925 Y75.464 E24.75445
G1 X51.032 Y73.586 E24.81702
G1 X51.116 Y72.821 E24.84261
G1 X51.342 Y71.847 E24.87587
G1 X51.494 Y71.349 E24.89319
