;FLAVOR:RepRap
;TIME:5545
;Filament used: 4.25972m
;Layer height: 0.2
;Generated with Cura_SteamEngine 2.4.0
M104 S205
M109 S205
; -- START GCODE --
G21                     ;set units to millimetres
G90                     ;set to absolute positioning
M106 S0                 ;set fan speed to zero (turned off)
G28 X0 Y0               ;move to the X/Y origin (Home)
G28 Z0                  ;move to the Z origin (Home)
G1 Z15.0 F1200          ;move Z to position 15.0 mm
G92 E0                  ;zero the extruded length
G1 E20 F200             ;extrude 20mm of feed stock
G92 E0                  ;zero the extruded length again
G1 F7200                ;set feedrate to 120 mm/s
; -- end of START GCODE --
;LAYER_COUNT:35
;LAYER:0
M107
G1 F1500 E-6.5
G0 F3600 X79.081 Y74.923 Z0.2
;TYPE:SKIRT
G1 F1500 E0
G1 F1200 X79.624 Y74.35 E0.02626
G1 X80.223 Y73.835 E0.05253
G1 X80.871 Y73.384 E0.07879
G1 X81.562 Y73 E0.10508
G1 X82.287 Y72.688 E0.13133
G1 X83.04 Y72.451 E0.15759
G1 X83.814 Y72.292 E0.18387
G1 X84.599 Y72.211 E0.21012
G1 X85.001 Y72.201 E0.22349
G1 X129.999 Y72.201 E1.72013
G1 X130.788 Y72.241 E1.74641
G1 X131.568 Y72.36 E1.77265
G1 X132.333 Y72.558 E1.79893
G1 X133.073 Y72.832 E1.82518
G1 X133.782 Y73.18 E1.85145
G1 X134.453 Y73.598 E1.87774
G1 X135.077 Y74.081 E1.90399
G1 X135.65 Y74.624 E1.93024
G1 X136.165 Y75.223 E1.95652
G1 X136.616 Y75.871 E1.98278
G1 X137 Y76.562 E2.00907
G1 X137.312 Y77.287 E2.03532
G1 X137.549 Y78.04 E2.06158
G1 X137.708 Y78.814 E2.08786
G1 X137.789 Y79.599 E2.11411
G1 X137.799 Y80.001 E2.12748
G1 X137.799 Y129.999 E3.79042
G1 X137.759 Y130.788 E3.8167
G1 X137.64 Y131.568 E3.84294
G1 X137.442 Y132.333 E3.86922
G1 X137.168 Y133.073 E3.89547
G1 X136.82 Y133.782 E3.92174
G1 X136.402 Y134.453 E3.94803
G1 X135.919 Y135.077 E3.97428
G1 X135.376 Y135.65 E4.00053
G1 X134.777 Y136.165 E4.02681
G1 X134.129 Y136.616 E4.05306
G1 X133.438 Y137 E4.07936
G1 X132.713 Y137.312 E4.10561
G1 X131.96 Y137.549 E4.13187
G1 X131.186 Y137.708 E4.15815
G1 X130.401 Y137.789 E4.18439
G1 X129.999 Y137.799 E4.19777
G1 X85.001 Y137.799 E5.69441
G1 X84.212 Y137.759 E5.72068
G1 X83.432 Y137.64 E5.74693
G1 X82.667 Y137.442 E5.77321
G1 X81.927 Y137.168 E5.79946
G1 X81.218 Y136.82 E5.82572
G1 X80.547 Y136.402 E5.85202
G1 X79.923 Y135.919 E5.87826
G1 X79.35 Y135.376 E5.90452
G1 X78.835 Y134.777 E5.93079
G1 X78.384 Y134.129 E5.95705
G1 X78 Y133.438 E5.98335
G1 X77.688 Y132.713 E6.0096
G1 X77.451 Y131.96 E6.03585
G1 X77.292 Y131.186 E6.06213
G1 X77.211 Y130.401 E6.08838
G1 X77.201 Y129.999 E6.10176
G1 X77.201 Y80.001 E7.7647
G1 X77.241 Y79.212 E7.79097
G1 X77.36 Y78.432 E7.81722
G1 X77.558 Y77.667 E7.8435
G1 X77.832 Y76.927 E7.86974
G1 X78.18 Y76.218 E7.89601
G1 X78.598 Y75.547 E7.92231
G1 X79.081 Y74.923 E7.94855
G0 F3600 X79.476 Y75.078
G1 F1200 X80.017 Y74.531 E7.97414
G1 X80.612 Y74.043 E7.99973
G1 X81.254 Y73.62 E8.02531
G1 X81.937 Y73.265 E8.05091
G1 X82.652 Y72.984 E8.07646
G1 X83.394 Y72.778 E8.10207
G1 X84.152 Y72.65 E8.12764
G1 X85.001 Y72.601 E8.15592
G1 X129.999 Y72.601 E9.65256
G1 X130.767 Y72.641 E9.67814
G1 X131.527 Y72.76 E9.70373
G1 X132.27 Y72.958 E9.7293
G1 X132.989 Y73.232 E9.75489
G1 X133.675 Y73.579 E9.78046
G1 X134.322 Y73.995 E9.80605
G1 X134.922 Y74.476 E9.83162
G1 X135.469 Y75.017 E9.85721
G1 X135.957 Y75.612 E9.88281
G1 X136.38 Y76.254 E9.90838
G1 X136.735 Y76.937 E9.93398
G1 X137.016 Y77.652 E9.95953
G1 X137.222 Y78.394 E9.98515
G1 X137.35 Y79.152 E10.01071
G1 X137.399 Y80.001 E10.039
G1 X137.399 Y129.999 E11.70194
G1 X137.359 Y130.767 E11.72752
G1 X137.24 Y131.527 E11.7531
G1 X137.042 Y132.27 E11.77868
G1 X136.768 Y132.989 E11.80427
G1 X136.421 Y133.675 E11.82984
G1 X136.005 Y134.322 E11.85542
G1 X135.524 Y134.922 E11.881
G1 X134.983 Y135.469 E11.90659
G1 X134.388 Y135.957 E11.93218
G1 X133.746 Y136.38 E11.95775
G1 X133.063 Y136.735 E11.98336
G1 X132.348 Y137.016 E12.00891
G1 X131.606 Y137.222 E12.03452
G1 X130.848 Y137.35 E12.06009
G1 X129.999 Y137.399 E12.08837
G1 X85.001 Y137.399 E13.58501
G1 X84.233 Y137.359 E13.61059
G1 X83.473 Y137.24 E13.63618
G1 X82.73 Y137.042 E13.66175
G1 X82.011 Y136.768 E13.68734
G1 X81.325 Y136.421 E13.71291
G1 X80.678 Y136.005 E13.7385
G1 X80.078 Y135.524 E13.76407
G1 X79.531 Y134.983 E13.78966
G1 X79.043 Y134.388 E13.81526
G1 X78.62 Y133.746 E13.84083
G1 X78.265 Y133.063 E13.86643
G1 X77.984 Y132.348 E13.89198
G1 X77.778 Y131.606 E13.91759
G1 X77.65 Y130.848 E13.94316
G1 X77.601 Y129.999 E13.97145
G1 X77.601 Y80.001 E15.63439
G1 X77.641 Y79.233 E15.65996
G1 X77.76 Y78.473 E15.68555
G1 X77.958 Y77.73 E15.71112
G1 X78.232 Y77.011 E15.73672
G1 X78.579 Y76.325 E15.76229
G1 X78.995 Y75.678 E15.78787
G1 X79.476 Y75.078 E15.81345
G0 F3600 X79.872 Y75.238
G1 F1200 X80.409 Y74.717 E15.83833
G1 X80.999 Y74.258 E15.86319
G1 X81.635 Y73.863 E15.8881
G1 X82.309 Y73.539 E15.91297
G1 X83.014 Y73.289 E15.93785
G1 X83.742 Y73.115 E15.96274
G1 X84.484 Y73.02 E15.98762
G1 X85.001 Y73.001 E16.00483
G1 X129.999 Y73.001 E17.50147
G1 X130.746 Y73.041 E17.52635
G1 X131.484 Y73.16 E17.55121
G1 X132.206 Y73.358 E17.57611
G1 X132.902 Y73.631 E17.60098
G1 X133.565 Y73.978 E17.62587
G1 X134.188 Y74.393 E17.65077
G1 X134.762 Y74.872 E17.67563
G1 X135.283 Y75.409 E17.70052
G1 X135.742 Y75.999 E17.72538
G1 X136.137 Y76.635 E17.75028
G1 X136.461 Y77.309 E17.77515
G1 X136.711 Y78.014 E17.80003
G1 X136.885 Y78.742 E17.82493
G1 X136.98 Y79.484 E17.84981
G1 X136.999 Y80.001 E17.86702
G1 X136.999 Y129.999 E19.52996
G1 X136.959 Y130.746 E19.55484
G1 X136.84 Y131.484 E19.5797
G1 X136.642 Y132.206 E19.6046
G1 X136.369 Y132.902 E19.62947
G1 X136.022 Y133.565 E19.65436
G1 X135.607 Y134.188 E19.67925
G1 X135.128 Y134.762 E19.70412
G1 X134.591 Y135.283 E19.729
G1 X134.001 Y135.742 E19.75387
G1 X133.365 Y136.137 E19.77877
G1 X132.691 Y136.461 E19.80364
G1 X131.986 Y136.711 E19.82852
G1 X131.258 Y136.885 E19.85342
G1 X130.516 Y136.98 E19.8783
G1 X129.999 Y136.999 E19.8955
G1 X85.001 Y136.999 E21.39214
G1 X84.254 Y136.959 E21.41702
G1 X83.516 Y136.84 E21.44189
G1 X82.794 Y136.642 E21.46679
G1 X82.098 Y136.369 E21.49165
G1 X81.435 Y136.022 E21.51654
G1 X80.812 Y135.607 E21.54144
G1 X80.238 Y135.128 E21.56631
G1 X79.717 Y134.591 E21.59119
G1 X79.258 Y134.001 E21.61605
G1 X78.863 Y133.365 E21.64095
G1 X78.539 Y132.691 E21.66583
G1 X78.289 Y131.986 E21.69071
G1 X78.115 Y131.258 E21.7156
G1 X78.02 Y130.516 E21.74048
G1 X78.001 Y129.999 E21.75769
G1 X78.001 Y80.001 E23.42063
G1 X78.041 Y79.254 E23.44551
G1 X78.16 Y78.516 E23.47037
G1 X78.358 Y77.794 E23.49527
G1 X78.631 Y77.098 E23.52014
G1 X78.978 Y76.435 E23.54503
G1 X79.393 Y75.812 E23.56993
G1 X79.872 Y75.238 E23.59479
G0 F3600 X80.266 Y75.403
G1 F1200 X80.8 Y74.91 E23.61897
G1 X81.385 Y74.48 E23.64311
G1 X82.014 Y74.116 E23.66728
G1 X82.679 Y73.823 E23.69145
G1 X83.372 Y73.605 E23.71562
G1 X84.084 Y73.465 E23.73975
G1 X85.001 Y73.401 E23.77033
G1 X129.999 Y73.401 E25.26696
G1 X130.724 Y73.441 E25.29112
G1 X131.441 Y73.56 E25.31529
G1 X132.14 Y73.758 E25.33945
G1 X132.813 Y74.031 E25.36361
G1 X133.452 Y74.376 E25.38776
G1 X134.049 Y74.79 E25.41192
G1 X134.597 Y75.266 E25.43607
G1 X135.09 Y75.8 E25.46024
G1 X135.52 Y76.385 E25.48439
G1 X135.884 Y77.014 E25.50856
G1 X136.177 Y77.679 E25.53273
G1 X136.395 Y78.372 E25.55689
G1 X136.535 Y79.084 E25.58103
G1 X136.599 Y80.001 E25.6116
G1 X136.599 Y129.999 E27.27454
G1 X136.559 Y130.724 E27.29869
G1 X136.44 Y131.441 E27.32286
G1 X136.242 Y132.14 E27.34703
G1 X135.969 Y132.813 E27.37118
G1 X135.624 Y133.452 E27.39534
G1 X135.21 Y134.049 E27.4195
G1 X134.734 Y134.597 E27.44364
G1 X134.2 Y135.09 E27.46781
G1 X133.615 Y135.52 E27.49196
G1 X132.986 Y135.884 E27.51613
G1 X132.321 Y136.177 E27.5403
G1 X131.628 Y136.395 E27.56447
G1 X130.916 Y136.535 E27.5886
G1 X129.999 Y136.599 E27.61917
G1 X85.001 Y136.599 E29.11581
G1 X84.276 Y136.559 E29.13996
G1 X83.559 Y136.44 E29.16414
G1 X82.86 Y136.242 E29.1883
G1 X82.187 Y135.969 E29.21246
G1 X81.548 Y135.624 E29.23661
G1 X80.951 Y135.21 E29.26077
G1 X80.403 Y134.734 E29.28492
G1 X79.91 Y134.2 E29.30909
G1 X79.48 Y133.615 E29.33324
G1 X79.116 Y132.986 E29.35741
G1 X78.823 Y132.321 E29.38158
G1 X78.605 Y131.628 E29.40574
G1 X78.465 Y130.916 E29.42988
G1 X78.401 Y129.999 E29.46045
G1 X78.401 Y80.001 E31.12339
G1 X78.441 Y79.276 E31.14754
G1 X78.56 Y78.559 E31.17171
G1 X78.758 Y77.86 E31.19588
G1 X79.031 Y77.187 E31.22003
G1 X79.376 Y76.548 E31.24419
G1 X79.79 Y75.951 E31.26835
G1 X80.266 Y75.403 E31.29249
G0 F3600 X80.66 Y75.574
G1 F1200 X81.19 Y75.11 E31.31592
G1 X81.769 Y74.71 E31.33933
G1 X82.39 Y74.378 E31.36275
G1 X83.044 Y74.118 E31.38616
G1 X83.724 Y73.934 E31.40959
G1 X84.42 Y73.828 E31.433
G1 X85.001 Y73.801 E31.45235
G1 X129.999 Y73.801 E32.94899
G1 X130.702 Y73.841 E32.97241
G1 X131.396 Y73.96 E32.99583
G1 X132.071 Y74.158 E33.01922
G1 X132.72 Y74.43 E33.04263
G1 X133.334 Y74.775 E33.06605
G1 X133.905 Y75.186 E33.08945
G1 X134.426 Y75.66 E33.11288
G1 X134.89 Y76.19 E33.13631
G1 X135.29 Y76.769 E33.15971
G1 X135.622 Y77.39 E33.18313
G1 X135.882 Y78.044 E33.20654
G1 X136.066 Y78.724 E33.22997
G1 X136.172 Y79.42 E33.25339
G1 X136.199 Y80.001 E33.27273
G1 X136.199 Y129.999 E34.93567
G1 X136.159 Y130.702 E34.95909
G1 X136.04 Y131.396 E34.98251
G1 X135.842 Y132.071 E35.00591
G1 X135.57 Y132.72 E35.02931
G1 X135.225 Y133.334 E35.05274
G1 X134.814 Y133.905 E35.07614
G1 X134.34 Y134.426 E35.09957
G1 X133.81 Y134.89 E35.12299
G1 X133.231 Y135.29 E35.1464
G1 X132.61 Y135.622 E35.16982
G1 X131.956 Y135.882 E35.19323
G1 X131.276 Y136.066 E35.21666
G1 X130.58 Y136.172 E35.24008
G1 X129.999 Y136.199 E35.25942
G1 X85.001 Y136.199 E36.75606
G1 X84.298 Y136.159 E36.77948
G1 X83.604 Y136.04 E36.8029
G1 X82.929 Y135.842 E36.8263
G1 X82.28 Y135.57 E36.8497
G1 X81.666 Y135.225 E36.87313
G1 X81.095 Y134.814 E36.89653
G1 X80.574 Y134.34 E36.91995
G1 X80.11 Y133.81 E36.94338
G1 X79.71 Y133.231 E36.96679
G1 X79.378 Y132.61 E36.99021
G1 X79.118 Y131.956 E37.01362
G1 X78.934 Y131.276 E37.03705
G1 X78.828 Y130.58 E37.06046
G1 X78.801 Y129.999 E37.07981
G1 X78.801 Y80.001 E38.74275
G1 X78.841 Y79.298 E38.76617
G1 X78.96 Y78.604 E38.78959
G1 X79.158 Y77.929 E38.81298
G1 X79.43 Y77.28 E38.83639
G1 X79.775 Y76.666 E38.85981
G1 X80.186 Y76.095 E38.88321
G1 X80.66 Y75.574 E38.90664
G0 F3600 X81.054 Y75.752
G1 F1200 X81.579 Y75.318 E38.9293
G1 X82.151 Y74.949 E38.95194
G1 X82.763 Y74.65 E38.97459
G1 X83.405 Y74.425 E38.99722
G1 X84.07 Y74.276 E39.01988
G1 X85.001 Y74.201 E39.05095
G1 X129.999 Y74.201 E40.54759
G1 X130.679 Y74.241 E40.57024
G1 X131.349 Y74.36 E40.59288
G1 X132.001 Y74.557 E40.61553
G1 X132.625 Y74.829 E40.63817
G1 X133.213 Y75.173 E40.66083
G1 X133.757 Y75.583 E40.68349
G1 X134.248 Y76.054 E40.70612
G1 X134.682 Y76.579 E40.72877
G1 X135.051 Y77.151 E40.75141
G1 X135.35 Y77.763 E40.77407
G1 X135.575 Y78.405 E40.79669
G1 X135.724 Y79.07 E40.81936
G1 X135.799 Y80.001 E40.85042
G1 X135.799 Y129.999 E42.51336
G1 X135.759 Y130.679 E42.53602
G1 X135.64 Y131.349 E42.55865
G1 X135.443 Y132.001 E42.58131
G1 X135.171 Y132.625 E42.60395
G1 X134.827 Y133.213 E42.62661
G1 X134.417 Y133.757 E42.64926
G1 X133.946 Y134.248 E42.67189
G1 X133.421 Y134.682 E42.69455
G1 X132.849 Y135.051 E42.71719
G1 X132.237 Y135.35 E42.73984
G1 X131.595 Y135.575 E42.76247
G1 X130.93 Y135.724 E42.78514
G1 X129.999 Y135.799 E42.8162
G1 X85.001 Y135.799 E44.31284
G1 X84.321 Y135.759 E44.3355
G1 X83.651 Y135.64 E44.35813
G1 X82.999 Y135.443 E44.38078
G1 X82.375 Y135.171 E44.40342
G1 X81.787 Y134.827 E44.42608
G1 X81.243 Y134.417 E44.44874
G1 X80.752 Y133.946 E44.47137
G1 X80.318 Y133.421 E44.49402
G1 X79.949 Y132.849 E44.51666
G1 X79.65 Y132.237 E44.53932
G1 X79.425 Y131.595 E44.56194
G1 X79.276 Y130.93 E44.58461
G1 X79.201 Y129.999 E44.61568
G1 X79.201 Y80.001 E46.27862
G1 X79.241 Y79.321 E46.30127
G1 X79.36 Y78.651 E46.32391
G1 X79.557 Y77.999 E46.34656
G1 X79.829 Y77.375 E46.3692
G1 X80.173 Y76.787 E46.39186
G1 X80.583 Y76.243 E46.41452
G1 X81.054 Y75.752 E46.43714
G0 F3600 X81.446 Y75.936
G1 F1200 X81.966 Y75.535 E46.45899
G1 X82.53 Y75.199 E46.48082
G1 X83.132 Y74.935 E46.50268
G1 X83.761 Y74.745 E46.52454
G1 X84.408 Y74.634 E46.54637
G1 X85.001 Y74.601 E46.56613
G1 X129.999 Y74.601 E48.06277
G1 X130.655 Y74.641 E48.08462
G1 X131.301 Y74.76 E48.10647
G1 X131.928 Y74.957 E48.12833
G1 X132.526 Y75.229 E48.15018
G1 X133.087 Y75.571 E48.17203
G1 X133.602 Y75.979 E48.19389
G1 X134.064 Y76.446 E48.21574
G1 X134.465 Y76.966 E48.23758
G1 X134.801 Y77.53 E48.25941
G1 X135.065 Y78.132 E48.28128
G1 X135.255 Y78.761 E48.30313
G1 X135.366 Y79.408 E48.32496
G1 X135.399 Y80.001 E48.34472
G1 X135.399 Y129.999 E50.00766
G1 X135.359 Y130.655 E50.02952
G1 X135.24 Y131.301 E50.05136
G1 X135.043 Y131.928 E50.07322
G1 X134.771 Y132.526 E50.09507
G1 X134.429 Y133.087 E50.11693
G1 X134.021 Y133.602 E50.13878
G1 X133.554 Y134.064 E50.16063
G1 X133.034 Y134.465 E50.18247
G1 X132.47 Y134.801 E50.2043
G1 X131.868 Y135.065 E50.22617
G1 X131.239 Y135.255 E50.24802
G1 X130.592 Y135.366 E50.26986
G1 X129.999 Y135.399 E50.28961
G1 X85.001 Y135.399 E51.78625
G1 X84.345 Y135.359 E51.80811
G1 X83.699 Y135.24 E51.82996
G1 X83.072 Y135.043 E51.85181
G1 X82.474 Y134.771 E51.87367
G1 X81.913 Y134.429 E51.89552
G1 X81.398 Y134.021 E51.91737
G1 X80.936 Y133.554 E51.93922
G1 X80.535 Y133.034 E51.96106
G1 X80.199 Y132.47 E51.9829
G1 X79.935 Y131.868 E52.00476
G1 X79.745 Y131.239 E52.02661
G1 X79.634 Y130.592 E52.04845
G1 X79.601 Y129.999 E52.0682
G1 X79.601 Y80.001 E53.73114
G1 X79.641 Y79.345 E53.753
G1 X79.76 Y78.699 E53.77485
G1 X79.957 Y78.072 E53.79671
G1 X80.229 Y77.474 E53.81856
G1 X80.571 Y76.913 E53.84041
G1 X80.979 Y76.398 E53.86226
G1 X81.446 Y75.936 E53.88411
G0 F3600 X81.837 Y76.13
G1 F1200 X82.351 Y75.761 E53.90516
G1 X82.907 Y75.461 E53.92617
G1 X83.496 Y75.233 E53.94718
G1 X84.11 Y75.081 E53.96821
G1 X85.001 Y75.001 E53.99797
G1 X129.999 Y75.001 E55.49461
G1 X130.63 Y75.041 E55.51564
G1 X131.251 Y75.16 E55.53667
G1 X131.851 Y75.357 E55.55767
G1 X132.423 Y75.628 E55.57872
G1 X132.955 Y75.968 E55.59972
G1 X133.44 Y76.374 E55.62076
G1 X133.87 Y76.837 E55.64178
G1 X134.239 Y77.351 E55.66282
G1 X134.539 Y77.907 E55.68383
G1 X134.767 Y78.496 E55.70484
G1 X134.919 Y79.11 E55.72588
G1 X134.999 Y80.001 E55.75563
G1 X134.999 Y129.999 E57.41857
G1 X134.959 Y130.63 E57.4396
G1 X134.84 Y131.251 E57.46063
G1 X134.643 Y131.851 E57.48164
G1 X134.372 Y132.423 E57.50269
G1 X134.032 Y132.955 E57.52369
G1 X133.626 Y133.44 E57.54473
G1 X133.163 Y133.87 E57.56574
G1 X132.649 Y134.239 E57.58679
G1 X132.093 Y134.539 E57.6078
G1 X131.504 Y134.767 E57.62881
G1 X130.89 Y134.919 E57.64985
G1 X129.999 Y134.999 E57.6796
G1 X85.001 Y134.999 E59.17624
G1 X84.37 Y134.959 E59.19727
G1 X83.749 Y134.84 E59.2183
G1 X83.149 Y134.643 E59.2393
G1 X82.577 Y134.372 E59.26035
G1 X82.045 Y134.032 E59.28135
G1 X81.56 Y133.626 E59.30239
G1 X81.13 Y133.163 E59.32341
G1 X80.761 Y132.649 E59.34445
G1 X80.461 Y132.093 E59.36547
G1 X80.233 Y131.504 E59.38647
G1 X80.081 Y130.89 E59.40751
G1 X80.001 Y129.999 E59.43726
G1 X80.001 Y80.001 E61.1002
G1 X80.041 Y79.37 E61.12123
G1 X80.16 Y78.749 E61.14226
G1 X80.357 Y78.149 E61.16327
G1 X80.628 Y77.577 E61.18432
G1 X80.968 Y77.045 E61.20532
G1 X81.374 Y76.56 E61.22636
G1 X81.837 Y76.13 E61.24737
G0 F3600 X82.226 Y76.332
G1 F1200 X82.733 Y75.999 E61.26755
G1 X83.279 Y75.735 E61.28772
G1 X83.855 Y75.546 E61.30788
G1 X84.451 Y75.434 E61.32805
G1 X85.001 Y75.401 E61.34638
G1 X129.999 Y75.401 E62.84302
G1 X130.604 Y75.441 E62.86318
G1 X131.198 Y75.56 E62.88333
G1 X131.772 Y75.756 E62.90351
G1 X132.315 Y76.027 E62.92369
G1 X132.818 Y76.366 E62.94387
G1 X133.271 Y76.768 E62.96401
G1 X133.668 Y77.226 E62.98417
G1 X134.001 Y77.733 E63.00434
G1 X134.265 Y78.279 E63.02452
G1 X134.454 Y78.855 E63.04468
G1 X134.566 Y79.451 E63.06485
G1 X134.599 Y80.001 E63.08317
G1 X134.599 Y129.999 E64.74611
G1 X134.559 Y130.604 E64.76628
G1 X134.44 Y131.198 E64.78643
G1 X134.244 Y131.772 E64.8066
G1 X133.973 Y132.315 E64.82679
G1 X133.634 Y132.818 E64.84696
G1 X133.232 Y133.271 E64.86711
G1 X132.774 Y133.668 E64.88727
G1 X132.267 Y134.001 E64.90744
