;FLAVOR:RepRap
;TIME:3195
;Filament used: 2.3274m
;Layer height: 0.2
;Generated with Cura_SteamEngine 2.4.0
M104 S205
M109 S205
; -- START GCODE --
G21                     ;set units to millimetres
G90                     ;set to absolute positioning
M106 S0                 ;set fan speed to zero (turned off)
G28 X0 Y0               ;move to the X/Y origin (Home)
G28 Z0                  ;move to the Z origin (Home)
G1 Z15.0 F1200          ;move Z to position 15.0 mm
G92 E0                  ;zero the extruded length
G1 E20 F200             ;extrude 20mm of feed stock
G92 E0                  ;zero the extruded length again
G1 F7200                ;set feedrate to 120 mm/s
; -- end of START GCODE --
;LAYER_COUNT:70
;LAYER:0
M107
G1 F1500 E-6.5
G0 F3600 X81.123 Y84.849 Z0.2
;TYPE:SKIRT
G1 F1500 E0
G1 F1200 X81.722 Y84.334 E0.02627
G1 X82.37 Y83.883 E0.05253
G1 X83.061 Y83.499 E0.07883
G1 X83.786 Y83.187 E0.10508
G1 X84.539 Y82.95 E0.13133
G1 X85.313 Y82.791 E0.15761
G1 X86.098 Y82.71 E0.18386
G1 X86.5 Y82.7 E0.19724
G1 X128.5 Y82.7 E1.59416
G1 X129.289 Y82.74 E1.62044
G1 X130.069 Y82.859 E1.64668
G1 X130.834 Y83.057 E1.67296
G1 X131.574 Y83.331 E1.69921
G1 X132.283 Y83.679 E1.72548
G1 X132.954 Y84.097 E1.75177
G1 X133.578 Y84.58 E1.77802
G1 X134.151 Y85.123 E1.80427
G1 X134.666 Y85.722 E1.83055
G1 X135.117 Y86.37 E1.85681
G1 X135.501 Y87.061 E1.8831
G1 X135.813 Y87.786 E1.90935
G1 X136.05 Y88.539 E1.93561
G1 X136.209 Y89.313 E1.96189
G1 X136.29 Y90.098 E1.98814
G1 X136.3 Y90.5 E2.00151
G1 X136.3 Y119.5 E2.96605
G1 X136.26 Y120.289 E2.99233
G1 X136.141 Y121.069 E3.01857
G1 X135.943 Y121.834 E3.04486
G1 X135.669 Y122.574 E3.0711
G1 X135.321 Y123.283 E3.09737
G1 X134.903 Y123.954 E3.12366
G1 X134.42 Y124.578 E3.14991
G1 X133.877 Y125.151 E3.17617
G1 X133.278 Y125.666 E3.20244
G1 X132.63 Y126.117 E3.2287
G1 X131.939 Y126.501 E3.25499
G1 X131.214 Y126.813 E3.28124
G1 X130.461 Y127.05 E3.3075
G1 X129.687 Y127.209 E3.33378
G1 X128.902 Y127.29 E3.36003
G1 X128.5 Y127.3 E3.3734
G1 X86.5 Y127.3 E4.77033
G1 X85.711 Y127.26 E4.7966
G1 X84.931 Y127.141 E4.82285
G1 X84.166 Y126.943 E4.84913
G1 X83.426 Y126.669 E4.87538
G1 X82.717 Y126.321 E4.90164
G1 X82.046 Y125.903 E4.92794
G1 X81.422 Y125.42 E4.95418
G1 X80.849 Y124.877 E4.98044
G1 X80.334 Y124.278 E5.00671
G1 X79.883 Y123.63 E5.03297
G1 X79.499 Y122.939 E5.05927
G1 X79.187 Y122.214 E5.08552
G1 X78.95 Y121.461 E5.11177
G1 X78.791 Y120.687 E5.13805
G1 X78.71 Y119.902 E5.1643
G1 X78.7 Y119.5 E5.17768
G1 X78.7 Y108.5 E5.54354
G1 X78.74 Y107.711 E5.56981
G1 X78.859 Y106.931 E5.59606
G1 X79.057 Y106.166 E5.62234
G1 X79.331 Y105.426 E5.64858
G1 X79.537 Y105.007 E5.66411
G1 X79.499 Y104.939 E5.6667
G1 X79.187 Y104.214 E5.69296
G1 X78.95 Y103.461 E5.71921
G1 X78.791 Y102.687 E5.74549
G1 X78.71 Y101.902 E5.77174
G1 X78.7 Y101.5 E5.78512
G1 X78.7 Y90.5 E6.15098
G1 X78.74 Y89.711 E6.17725
G1 X78.859 Y88.931 E6.2035
G1 X79.057 Y88.166 E6.22978
G1 X79.331 Y87.426 E6.25602
G1 X79.679 Y86.717 E6.28229
G1 X80.097 Y86.046 E6.30859
G1 X80.58 Y85.422 E6.33483
G1 X81.123 Y84.849 E6.36109
G0 F3600 X81.516 Y85.03
G1 F1200 X82.111 Y84.542 E6.38668
G1 X82.753 Y84.119 E6.41225
G1 X83.436 Y83.764 E6.43786
G1 X84.151 Y83.483 E6.46341
G1 X84.893 Y83.277 E6.48902
G1 X85.651 Y83.149 E6.51459
G1 X86.5 Y83.1 E6.54287
G1 X128.5 Y83.1 E7.9398
G1 X129.268 Y83.14 E7.96538
G1 X130.028 Y83.259 E7.99096
G1 X130.771 Y83.457 E8.01654
G1 X131.49 Y83.731 E8.04213
G1 X132.176 Y84.078 E8.0677
G1 X132.823 Y84.494 E8.09328
G1 X133.423 Y84.975 E8.11886
G1 X133.97 Y85.516 E8.14445
G1 X134.458 Y86.111 E8.17004
G1 X134.881 Y86.753 E8.19561
G1 X135.236 Y87.436 E8.22122
G1 X135.517 Y88.151 E8.24677
G1 X135.723 Y88.893 E8.27238
G1 X135.851 Y89.651 E8.29795
G1 X135.9 Y90.5 E8.32623
G1 X135.9 Y119.5 E9.29078
G1 X135.86 Y120.268 E9.31636
G1 X135.741 Y121.028 E9.34194
G1 X135.543 Y121.771 E9.36752
G1 X135.269 Y122.49 E9.39311
G1 X134.922 Y123.176 E9.41868
G1 X134.506 Y123.823 E9.44426
G1 X134.025 Y124.423 E9.46984
G1 X133.484 Y124.97 E9.49543
G1 X132.889 Y125.458 E9.52102
G1 X132.247 Y125.881 E9.54659
G1 X131.564 Y126.236 E9.57219
G1 X130.849 Y126.517 E9.59774
G1 X130.107 Y126.723 E9.62336
G1 X129.349 Y126.851 E9.64893
G1 X128.5 Y126.9 E9.67721
G1 X86.5 Y126.9 E11.07414
G1 X85.732 Y126.86 E11.09971
G1 X84.972 Y126.741 E11.1253
G1 X84.229 Y126.543 E11.15087
G1 X83.51 Y126.269 E11.17647
G1 X82.824 Y125.922 E11.20204
G1 X82.177 Y125.506 E11.22762
G1 X81.577 Y125.025 E11.2532
G1 X81.03 Y124.484 E11.27878
G1 X80.542 Y123.889 E11.30438
G1 X80.119 Y123.247 E11.32995
G1 X79.764 Y122.564 E11.35555
G1 X79.483 Y121.849 E11.3811
G1 X79.277 Y121.107 E11.40672
G1 X79.149 Y120.349 E11.43228
G1 X79.1 Y119.5 E11.46057
G1 X79.1 Y108.5 E11.82643
G1 X79.14 Y107.732 E11.85201
G1 X79.259 Y106.972 E11.8776
G1 X79.457 Y106.229 E11.90317
G1 X79.731 Y105.51 E11.92876
G1 X79.99 Y104.998 E11.94785
G1 X79.764 Y104.564 E11.96412
G1 X79.483 Y103.849 E11.98967
G1 X79.277 Y103.107 E12.01528
G1 X79.149 Y102.349 E12.04085
G1 X79.1 Y101.5 E12.06914
G1 X79.1 Y90.5 E12.435
G1 X79.14 Y89.732 E12.46058
G1 X79.259 Y88.972 E12.48616
G1 X79.457 Y88.229 E12.51174
G1 X79.731 Y87.51 E12.53733
G1 X80.078 Y86.824 E12.5629
G1 X80.494 Y86.177 E12.58848
G1 X80.975 Y85.577 E12.61406
G1 X81.516 Y85.03 E12.63965
G0 F3600 X81.908 Y85.216
G1 F1200 X82.498 Y84.757 E12.66451
G1 X83.134 Y84.362 E12.68941
G1 X83.808 Y84.038 E12.71428
G1 X84.513 Y83.788 E12.73916
G1 X85.241 Y83.614 E12.76406
G1 X85.983 Y83.519 E12.78894
G1 X86.5 Y83.5 E12.80615
G1 X128.5 Y83.5 E14.20307
G1 X129.247 Y83.54 E14.22795
G1 X129.985 Y83.659 E14.25282
G1 X130.707 Y83.857 E14.27772
G1 X131.403 Y84.13 E14.30258
G1 X132.066 Y84.477 E14.32747
G1 X132.689 Y84.892 E14.35237
G1 X133.263 Y85.371 E14.37724
G1 X133.784 Y85.908 E14.40212
G1 X134.243 Y86.498 E14.42698
G1 X134.638 Y87.134 E14.45188
G1 X134.962 Y87.808 E14.47676
G1 X135.212 Y88.513 E14.50164
G1 X135.386 Y89.241 E14.52653
G1 X135.481 Y89.983 E14.55141
G1 X135.5 Y90.5 E14.56862
G1 X135.5 Y119.5 E15.53316
G1 X135.46 Y120.247 E15.55804
G1 X135.341 Y120.985 E15.58291
G1 X135.143 Y121.707 E15.60781
G1 X134.87 Y122.403 E15.63267
G1 X134.523 Y123.066 E15.65756
G1 X134.108 Y123.689 E15.68246
G1 X133.629 Y124.263 E15.70733
G1 X133.092 Y124.784 E15.73221
G1 X132.502 Y125.243 E15.75707
G1 X131.866 Y125.638 E15.78197
G1 X131.192 Y125.962 E15.80685
G1 X130.487 Y126.212 E15.83173
G1 X129.759 Y126.386 E15.85662
G1 X129.017 Y126.481 E15.8815
G1 X128.5 Y126.5 E15.89871
G1 X86.5 Y126.5 E17.29564
G1 X85.753 Y126.46 E17.32052
G1 X85.015 Y126.341 E17.34538
G1 X84.293 Y126.143 E17.37028
G1 X83.597 Y125.87 E17.39515
G1 X82.934 Y125.523 E17.42004
G1 X82.311 Y125.108 E17.44493
G1 X81.737 Y124.629 E17.4698
G1 X81.216 Y124.092 E17.49468
G1 X80.757 Y123.502 E17.51955
G1 X80.362 Y122.866 E17.54445
G1 X80.038 Y122.192 E17.56932
G1 X79.788 Y121.487 E17.5942
G1 X79.614 Y120.759 E17.61909
G1 X79.519 Y120.017 E17.64397
G1 X79.5 Y119.5 E17.66118
G1 X79.5 Y108.5 E18.02704
G1 X79.54 Y107.753 E18.05192
G1 X79.659 Y107.015 E18.07679
G1 X79.857 Y106.293 E18.10169
G1 X80.13 Y105.597 E18.12655
G1 X80.444 Y104.998 E18.14905
G1 X80.362 Y104.866 E18.15422
G1 X80.038 Y104.192 E18.17909
G1 X79.788 Y103.487 E18.20397
G1 X79.614 Y102.759 E18.22886
G1 X79.519 Y102.017 E18.25374
G1 X79.5 Y101.5 E18.27095
G1 X79.5 Y90.5 E18.63681
G1 X79.54 Y89.753 E18.66169
G1 X79.659 Y89.015 E18.68656
G1 X79.857 Y88.293 E18.71146
G1 X80.13 Y87.597 E18.73632
G1 X80.477 Y86.934 E18.76121
G1 X80.892 Y86.311 E18.78611
G1 X81.371 Y85.737 E18.81098
G1 X81.908 Y85.216 E18.83586
G0 F3600 X82.299 Y85.409
G1 F1200 X82.884 Y84.979 E18.86001
G1 X83.513 Y84.615 E18.88418
G1 X84.178 Y84.322 E18.90835
G1 X84.871 Y84.104 E18.93251
G1 X85.583 Y83.964 E18.95665
G1 X86.5 Y83.9 E18.98722
G1 X128.5 Y83.9 E20.38415
G1 X129.225 Y83.94 E20.4083
G1 X129.942 Y84.059 E20.43247
G1 X130.641 Y84.257 E20.45663
G1 X131.314 Y84.53 E20.48079
G1 X131.953 Y84.875 E20.50494
G1 X132.55 Y85.289 E20.52911
G1 X133.098 Y85.765 E20.55325
G1 X133.591 Y86.299 E20.57742
G1 X134.021 Y86.884 E20.60157
G1 X134.385 Y87.513 E20.62574
G1 X134.678 Y88.178 E20.64991
G1 X134.896 Y88.871 E20.67407
G1 X135.036 Y89.583 E20.69821
G1 X135.1 Y90.5 E20.72878
G1 X135.1 Y119.5 E21.69333
G1 X135.06 Y120.225 E21.71748
G1 X134.941 Y120.942 E21.74165
G1 X134.743 Y121.641 E21.76581
G1 X134.47 Y122.314 E21.78997
G1 X134.125 Y122.953 E21.81412
G1 X133.711 Y123.55 E21.83829
G1 X133.235 Y124.098 E21.86243
G1 X132.701 Y124.591 E21.8866
G1 X132.116 Y125.021 E21.91075
G1 X131.487 Y125.385 E21.93492
G1 X130.822 Y125.678 E21.95909
G1 X130.129 Y125.896 E21.98325
G1 X129.417 Y126.036 E22.00739
G1 X128.5 Y126.1 E22.03796
G1 X86.5 Y126.1 E23.43489
G1 X85.775 Y126.06 E23.45904
G1 X85.058 Y125.941 E23.48321
G1 X84.359 Y125.743 E23.50737
G1 X83.686 Y125.47 E23.53153
G1 X83.047 Y125.125 E23.55568
G1 X82.45 Y124.711 E23.57985
G1 X81.902 Y124.235 E23.60399
G1 X81.409 Y123.701 E23.62816
G1 X80.979 Y123.116 E23.65231
G1 X80.615 Y122.487 E23.67648
G1 X80.322 Y121.822 E23.70065
G1 X80.104 Y121.129 E23.72481
G1 X79.964 Y120.417 E23.74895
G1 X79.9 Y119.5 E23.77952
G1 X79.9 Y108.5 E24.14538
G1 X79.94 Y107.775 E24.16953
G1 X80.059 Y107.058 E24.19371
G1 X80.257 Y106.359 E24.21787
G1 X80.53 Y105.686 E24.24203
G1 X80.875 Y105.047 E24.26618
G1 X80.91 Y104.997 E24.26821
G1 X80.615 Y104.487 E24.2878
G1 X80.322 Y103.822 E24.31197
G1 X80.104 Y103.129 E24.33614
G1 X79.964 Y102.417 E24.36027
G1 X79.9 Y101.5 E24.39085
G1 X79.9 Y90.5 E24.75671
G1 X79.94 Y89.775 E24.78086
G1 X80.059 Y89.058 E24.80503
G1 X80.257 Y88.359 E24.82919
G1 X80.53 Y87.686 E24.85335
G1 X80.875 Y87.047 E24.8775
G1 X81.289 Y86.45 E24.90167
G1 X81.765 Y85.902 E24.92581
G1 X82.299 Y85.409 E24.94998
G0 F3600 X82.689 Y85.609
G1 F1200 X83.268 Y85.209 E24.97339
G1 X83.889 Y84.877 E24.99681
G1 X84.543 Y84.617 E25.02022
G1 X85.223 Y84.433 E25.04365
G1 X85.919 Y84.327 E25.06706
G1 X86.5 Y84.3 E25.08641
G1 X128.5 Y84.3 E26.48333
G1 X129.203 Y84.34 E26.50675
G1 X129.897 Y84.459 E26.53017
G1 X130.572 Y84.657 E26.55357
G1 X131.221 Y84.929 E26.57698
G1 X131.835 Y85.274 E26.6004
G1 X132.406 Y85.685 E26.6238
G1 X132.927 Y86.159 E26.64723
G1 X133.391 Y86.689 E26.67066
G1 X133.791 Y87.268 E26.69406
G1 X134.123 Y87.889 E26.71748
G1 X134.383 Y88.543 E26.74089
G1 X134.567 Y89.223 E26.76432
G1 X134.673 Y89.919 E26.78774
G1 X134.7 Y90.5 E26.80708
G1 X134.7 Y119.5 E27.77163
G1 X134.66 Y120.203 E27.79505
G1 X134.541 Y120.897 E27.81846
G1 X134.343 Y121.572 E27.84186
G1 X134.071 Y122.221 E27.86527
G1 X133.726 Y122.835 E27.88869
G1 X133.315 Y123.406 E27.91209
G1 X132.841 Y123.927 E27.93552
G1 X132.311 Y124.391 E27.95895
G1 X131.732 Y124.791 E27.98235
G1 X131.111 Y125.123 E28.00577
G1 X130.457 Y125.383 E28.02918
G1 X129.777 Y125.567 E28.05261
G1 X129.081 Y125.673 E28.07603
G1 X128.5 Y125.7 E28.09537
G1 X86.5 Y125.7 E29.4923
G1 X85.797 Y125.66 E29.51572
G1 X85.103 Y125.541 E29.53914
G1 X84.428 Y125.343 E29.56253
G1 X83.779 Y125.071 E29.58594
G1 X83.165 Y124.726 E29.60936
G1 X82.594 Y124.315 E29.63276
G1 X82.073 Y123.841 E29.65619
G1 X81.609 Y123.311 E29.67962
G1 X81.209 Y122.732 E29.70303
G1 X80.877 Y122.111 E29.72645
G1 X80.617 Y121.457 E29.74985
G1 X80.433 Y120.777 E29.77329
G1 X80.327 Y120.081 E29.7967
G1 X80.3 Y119.5 E29.81605
G1 X80.3 Y108.5 E30.18191
G1 X80.34 Y107.797 E30.20533
G1 X80.459 Y107.103 E30.22875
G1 X80.657 Y106.428 E30.25214
G1 X80.929 Y105.779 E30.27555
G1 X81.274 Y105.165 E30.29897
G1 X81.393 Y104.999 E30.30577
G1 X81.209 Y104.732 E30.31655
G1 X80.877 Y104.111 E30.33997
G1 X80.617 Y103.457 E30.36338
G1 X80.433 Y102.777 E30.38681
G1 X80.327 Y102.081 E30.41023
G1 X80.3 Y101.5 E30.42957
G1 X80.3 Y90.5 E30.79543
G1 X80.34 Y89.797 E30.81885
G1 X80.459 Y89.103 E30.84227
G1 X80.657 Y88.428 E30.86567
G1 X80.929 Y87.779 E30.88907
G1 X81.274 Y87.165 E30.9125
G1 X81.685 Y86.594 E30.9359
G1 X82.159 Y86.073 E30.95932
G1 X82.689 Y85.609 E30.98275
G0 F3600 X83.078 Y85.817
G1 F1200 X83.65 Y85.448 E31.00539
G1 X84.262 Y85.149 E31.02805
G1 X84.904 Y84.924 E31.05067
G1 X85.569 Y84.775 E31.07334
G1 X86.5 Y84.7 E31.10441
G1 X128.5 Y84.7 E32.50133
G1 X129.18 Y84.74 E32.52399
G1 X129.85 Y84.859 E32.54662
G1 X130.502 Y85.056 E32.56928
G1 X131.126 Y85.328 E32.59192
G1 X131.714 Y85.672 E32.61457
G1 X132.258 Y86.082 E32.63723
G1 X132.749 Y86.553 E32.65986
G1 X133.183 Y87.078 E32.68252
G1 X133.552 Y87.65 E32.70516
G1 X133.851 Y88.262 E32.72781
G1 X134.076 Y88.904 E32.75044
G1 X134.225 Y89.569 E32.7731
G1 X134.3 Y90.5 E32.80417
G1 X134.3 Y119.5 E33.76871
G1 X134.26 Y120.18 E33.79137
G1 X134.141 Y120.85 E33.814
G1 X133.944 Y121.502 E33.83666
G1 X133.672 Y122.126 E33.8593
G1 X133.328 Y122.714 E33.88195
G1 X132.918 Y123.258 E33.90461
G1 X132.447 Y123.749 E33.92724
G1 X131.922 Y124.183 E33.9499
G1 X131.35 Y124.552 E33.97254
G1 X130.738 Y124.851 E33.99519
G1 X130.096 Y125.076 E34.01782
G1 X129.431 Y125.225 E34.04048
G1 X128.5 Y125.3 E34.07155
G1 X86.5 Y125.3 E35.46847
G1 X85.82 Y125.26 E35.49113
G1 X85.15 Y125.141 E35.51376
G1 X84.498 Y124.944 E35.53642
G1 X83.874 Y124.672 E35.55906
G1 X83.286 Y124.328 E35.58172
G1 X82.742 Y123.918 E35.60437
G1 X82.251 Y123.447 E35.627
G1 X81.817 Y122.922 E35.64966
G1 X81.448 Y122.35 E35.6723
G1 X81.149 Y121.738 E35.69495
G1 X80.924 Y121.096 E35.71758
G1 X80.775 Y120.431 E35.74024
G1 X80.7 Y119.5 E35.77131
G1 X80.7 Y108.5 E36.13717
G1 X80.74 Y107.82 E36.15983
G1 X80.859 Y107.15 E36.18246
G1 X81.056 Y106.498 E36.20511
G1 X81.328 Y105.874 E36.22776
G1 X81.672 Y105.286 E36.25041
G1 X81.885 Y105.004 E36.26217
G1 X81.817 Y104.922 E36.26571
G1 X81.448 Y104.35 E36.28835
G1 X81.149 Y103.738 E36.311
G1 X80.924 Y103.096 E36.33363
G1 X80.775 Y102.431 E36.3563
G1 X80.7 Y101.5 E36.38736
G1 X80.7 Y90.5 E36.75322
G1 X80.74 Y89.82 E36.77588
G1 X80.859 Y89.15 E36.79851
G1 X81.056 Y88.498 E36.82117
G1 X81.328 Y87.874 E36.84381
G1 X81.672 Y87.286 E36.86647
G1 X82.082 Y86.742 E36.88912
G1 X82.553 Y86.251 E36.91175
G1 X83.078 Y85.817 E36.93441
G0 F3600 X83.465 Y86.034
G1 F1200 X84.029 Y85.698 E36.95624
G1 X84.631 Y85.434 E36.97811
G1 X85.26 Y85.244 E36.99996
G1 X85.907 Y85.133 E37.02179
G1 X86.5 Y85.1 E37.04155
G1 X128.5 Y85.1 E38.43847
G1 X129.156 Y85.14 E38.46033
G1 X129.802 Y85.259 E38.48218
G1 X130.429 Y85.456 E38.50404
G1 X131.027 Y85.728 E38.52589
G1 X131.588 Y86.07 E38.54774
G1 X132.103 Y86.478 E38.5696
G1 X132.565 Y86.945 E38.59144
G1 X132.966 Y87.465 E38.61329
G1 X133.302 Y88.029 E38.63512
G1 X133.566 Y88.631 E38.65698
G1 X133.756 Y89.26 E38.67884
G1 X133.867 Y89.907 E38.70067
G1 X133.9 Y90.5 E38.72043
G1 X133.9 Y119.5 E39.68497
G1 X133.86 Y120.156 E39.70683
G1 X133.741 Y120.802 E39.72868
G1 X133.544 Y121.429 E39.75054
G1 X133.272 Y122.027 E39.77239
G1 X132.93 Y122.588 E39.79424
G1 X132.522 Y123.103 E39.81609
G1 X132.055 Y123.565 E39.83794
G1 X131.535 Y123.966 E39.85978
G1 X130.971 Y124.302 E39.88162
G1 X130.369 Y124.566 E39.90348
G1 X129.74 Y124.756 E39.92533
G1 X129.093 Y124.867 E39.94717
G1 X128.5 Y124.9 E39.96692
G1 X86.5 Y124.9 E41.36385
G1 X85.844 Y124.86 E41.38571
G1 X85.198 Y124.741 E41.40755
G1 X84.571 Y124.544 E41.42941
G1 X83.973 Y124.272 E41.45126
G1 X83.412 Y123.93 E41.47312
G1 X82.897 Y123.522 E41.49497
G1 X82.435 Y123.055 E41.51682
G1 X82.034 Y122.535 E41.53866
G1 X81.698 Y121.971 E41.56049
G1 X81.434 Y121.369 E41.58236
G1 X81.244 Y120.74 E41.60421
G1 X81.133 Y120.093 E41.62605
G1 X81.1 Y119.5 E41.6458
G1 X81.1 Y108.5 E42.01166
G1 X81.14 Y107.844 E42.03352
G1 X81.259 Y107.198 E42.05537
G1 X81.456 Y106.571 E42.07723
G1 X81.728 Y105.973 E42.09908
G1 X82.07 Y105.412 E42.12093
G1 X82.394 Y105.002 E42.13831
G1 X82.034 Y104.535 E42.15792
G1 X81.698 Y103.971 E42.17976
G1 X81.434 Y103.369 E42.20162
G1 X81.244 Y102.74 E42.22348
G1 X81.133 Y102.093 E42.24531
G1 X81.1 Y101.5 E42.26506
G1 X81.1 Y90.5 E42.63092
G1 X81.14 Y89.844 E42.65278
G1 X81.259 Y89.198 E42.67463
G1 X81.456 Y88.571 E42.69649
G1 X81.728 Y87.973 E42.71834
G1 X82.07 Y87.412 E42.74019
G1 X82.478 Y86.897 E42.76205
G1 X82.945 Y86.435 E42.7839
G1 X83.465 Y86.034 E42.80574
G0 F3600 X83.85 Y86.26
G1 F1200 X84.406 Y85.96 E42.82675
G1 X84.995 Y85.732 E42.84776
G1 X85.609 Y85.58 E42.86879
