;FLAVOR:RepRap
;TIME:5104
;Filament used: 3.44033m
;Layer height: 0.2
;Generated with Cura_SteamEngine 2.4.0
M104 S205
M109 S205
; -- START GCODE --
G21                     ;set units to millimetres
G90                     ;set to absolute positioning
M106 S0                 ;set fan speed to zero (turned off)
G28 X0 Y0               ;move to the X/Y origin (Home)
G28 Z0                  ;move to the Z origin (Home)
G1 Z15.0 F1200          ;move Z to position 15.0 mm
G92 E0                  ;zero the extruded length
G1 E20 F200             ;extrude 20mm of feed stock
G92 E0                  ;zero the extruded length again
G1 F7200                ;set feedrate to 120 mm/s
; -- end of START GCODE --
;LAYER_COUNT:150
;LAYER:0
M107
G1 F1500 E-6.5
G0 F3600 X87.128 Y89.149 Z0.2
;TYPE:SKIRT
G1 F1500 E0
G1 F1200 X87.727 Y88.634 E0.02627
G1 X88.375 Y88.183 E0.05253
G1 X89.066 Y87.799 E0.07883
G1 X89.791 Y87.487 E0.10508
G1 X90.544 Y87.25 E0.13133
G1 X91.318 Y87.091 E0.15761
G1 X92.103 Y87.01 E0.18386
G1 X92.505 Y87 E0.19724
G1 X95.138 Y87 E0.28481
G1 X95.927 Y87.04 E0.31109
G1 X96.707 Y87.159 E0.33733
G1 X97.472 Y87.357 E0.36361
G1 X98.212 Y87.631 E0.38986
G1 X98.921 Y87.979 E0.41613
G1 X99.073 Y88.074 E0.42209
G1 X99.518 Y87.811 E0.43928
G1 X100.235 Y87.48 E0.46555
G1 X100.982 Y87.224 E0.49181
G1 X101.752 Y87.045 E0.5181
G1 X102.101 Y87 E0.52981
G1 X102.454 Y86.877 E0.54224
G1 X103.222 Y86.694 E0.5685
G1 X104.005 Y86.59 E0.59477
G1 X104.641 Y86.564 E0.61594
G1 X121.248 Y86.564 E1.16829
G1 X122.037 Y86.604 E1.19457
G1 X122.817 Y86.723 E1.22081
G1 X123.215 Y86.826 E1.23449
G1 X123.489 Y86.84 E1.24361
G1 X124.269 Y86.959 E1.26985
G1 X125.034 Y87.157 E1.29614
G1 X125.774 Y87.431 E1.32238
G1 X126.483 Y87.779 E1.34865
G1 X127.154 Y88.197 E1.37495
G1 X127.778 Y88.68 E1.40119
G1 X128.351 Y89.223 E1.42745
G1 X128.866 Y89.822 E1.45372
G1 X129.317 Y90.47 E1.47998
G1 X129.701 Y91.161 E1.50627
G1 X130.013 Y91.886 E1.53252
G1 X130.25 Y92.639 E1.55878
G1 X130.409 Y93.413 E1.58506
G1 X130.49 Y94.198 E1.61131
G1 X130.5 Y94.6 E1.62468
G1 X130.5 Y95.01 E1.63832
G1 X130.46 Y95.799 E1.6646
G1 X130.341 Y96.579 E1.69084
G1 X130.143 Y97.344 E1.71712
G1 X129.869 Y98.084 E1.74337
G1 X129.521 Y98.793 E1.76964
G1 X129.285 Y99.172 E1.78449
G1 X129.501 Y99.561 E1.79928
G1 X129.813 Y100.286 E1.82554
G1 X130.05 Y101.039 E1.85179
G1 X130.209 Y101.813 E1.87807
G1 X130.29 Y102.598 E1.90432
G1 X130.3 Y103 E1.9177
G1 X130.3 Y104.799 E1.97753
G1 X130.26 Y105.588 E2.00381
G1 X130.141 Y106.368 E2.03005
G1 X129.943 Y107.133 E2.05633
G1 X129.669 Y107.873 E2.08258
G1 X129.651 Y107.91 E2.08395
G1 X129.811 Y108.283 E2.09745
G1 X130.049 Y109.036 E2.12371
G1 X130.209 Y109.809 E2.14997
G1 X130.289 Y110.595 E2.17624
G1 X130.3 Y111 E2.18972
G1 X130.3 Y115.2 E2.32941
G1 X130.26 Y115.989 E2.35569
G1 X130.141 Y116.769 E2.38193
G1 X129.943 Y117.534 E2.40821
G1 X129.669 Y118.274 E2.43446
G1 X129.321 Y118.983 E2.46073
G1 X128.903 Y119.654 E2.48702
G1 X128.42 Y120.278 E2.51327
G1 X127.877 Y120.851 E2.53952
G1 X127.278 Y121.366 E2.5658
G1 X126.63 Y121.817 E2.59206
G1 X125.939 Y122.201 E2.61835
G1 X125.214 Y122.513 E2.6446
G1 X124.461 Y122.75 E2.67086
G1 X123.687 Y122.909 E2.69714
G1 X122.902 Y122.99 E2.72339
G1 X122.5 Y123 E2.73676
G1 X92.505 Y123 E3.7344
G1 X91.716 Y122.96 E3.76067
G1 X90.936 Y122.841 E3.78692
G1 X90.171 Y122.643 E3.8132
G1 X89.431 Y122.369 E3.83945
G1 X88.722 Y122.021 E3.86571
G1 X88.051 Y121.603 E3.89201
G1 X87.427 Y121.12 E3.91825
G1 X86.854 Y120.577 E3.94451
G1 X86.339 Y119.978 E3.97078
G1 X85.888 Y119.33 E3.99704
G1 X85.504 Y118.639 E4.02333
G1 X85.192 Y117.914 E4.04959
G1 X84.955 Y117.161 E4.07584
G1 X84.796 Y116.387 E4.10212
G1 X84.715 Y115.602 E4.12837
G1 X84.705 Y115.2 E4.14175
G1 X84.705 Y111.013 E4.28101
G1 X84.745 Y110.224 E4.30728
G1 X84.864 Y109.444 E4.33353
G1 X85.062 Y108.679 E4.35981
G1 X85.336 Y107.939 E4.38605
G1 X85.357 Y107.897 E4.38762
G1 X85.192 Y107.514 E4.40149
G1 X84.956 Y106.761 E4.42773
G1 X84.796 Y105.988 E4.45399
G1 X84.715 Y105.202 E4.48027
G1 X84.705 Y104.8 E4.49364
G1 X84.705 Y94.8 E4.82624
G1 X84.745 Y94.011 E4.85252
G1 X84.864 Y93.231 E4.87876
G1 X85.062 Y92.466 E4.90505
G1 X85.336 Y91.726 E4.93129
G1 X85.684 Y91.017 E4.95756
G1 X86.102 Y90.346 E4.98385
G1 X86.585 Y89.722 E5.0101
G1 X87.128 Y89.149 E5.03635
G0 F3600 X87.521 Y89.33
G1 F1200 X88.116 Y88.842 E5.06195
G1 X88.758 Y88.419 E5.08752
G1 X89.441 Y88.064 E5.11312
G1 X90.156 Y87.783 E5.13867
G1 X90.898 Y87.577 E5.16429
G1 X91.656 Y87.449 E5.18985
G1 X92.505 Y87.4 E5.21814
G1 X95.138 Y87.4 E5.30571
G1 X95.906 Y87.44 E5.33129
G1 X96.666 Y87.559 E5.35688
G1 X97.409 Y87.757 E5.38245
G1 X98.128 Y88.031 E5.40804
G1 X98.814 Y88.378 E5.43361
G1 X99.074 Y88.545 E5.44389
G1 X99.227 Y88.438 E5.4501
G1 X99.9 Y88.066 E5.47568
G1 X100.608 Y87.766 E5.50125
G1 X101.344 Y87.541 E5.52685
G1 X102.099 Y87.394 E5.55243
G1 X102.202 Y87.387 E5.55587
G1 X102.681 Y87.228 E5.57265
G1 X103.432 Y87.063 E5.59823
G1 X104.197 Y86.977 E5.62383
G1 X104.641 Y86.964 E5.6386
G1 X121.248 Y86.964 E6.19096
G1 X122.016 Y87.004 E6.21653
G1 X122.776 Y87.123 E6.24212
G1 X123.154 Y87.224 E6.25513
G1 X123.468 Y87.24 E6.26559
G1 X124.228 Y87.359 E6.29118
G1 X124.971 Y87.557 E6.31675
G1 X125.69 Y87.831 E6.34234
G1 X126.376 Y88.178 E6.36791
G1 X127.023 Y88.594 E6.3935
G1 X127.623 Y89.075 E6.41907
G1 X128.17 Y89.616 E6.44466
G1 X128.658 Y90.211 E6.47026
G1 X129.081 Y90.853 E6.49583
G1 X129.436 Y91.536 E6.52143
G1 X129.717 Y92.251 E6.54698
G1 X129.923 Y92.993 E6.57259
G1 X130.051 Y93.751 E6.59816
G1 X130.1 Y94.6 E6.62645
G1 X130.1 Y95.01 E6.64008
G1 X130.06 Y95.778 E6.66566
G1 X129.941 Y96.538 E6.69125
G1 X129.743 Y97.281 E6.71682
G1 X129.469 Y98 E6.74241
G1 X129.122 Y98.686 E6.76798
G1 X128.818 Y99.158 E6.78666
G1 X128.881 Y99.253 E6.79045
G1 X129.236 Y99.936 E6.81605
G1 X129.517 Y100.651 E6.8416
G1 X129.723 Y101.393 E6.86721
G1 X129.851 Y102.151 E6.89278
G1 X129.9 Y103 E6.92107
G1 X129.9 Y104.799 E6.9809
G1 X129.86 Y105.567 E7.00648
G1 X129.741 Y106.327 E7.03206
G1 X129.543 Y107.07 E7.05764
G1 X129.269 Y107.789 E7.08323
G1 X129.215 Y107.896 E7.08722
G1 X129.234 Y107.933 E7.0886
G1 X129.516 Y108.648 E7.11416
G1 X129.723 Y109.389 E7.13975
G1 X129.851 Y110.148 E7.16536
G1 X129.9 Y111 E7.19374
G1 X129.9 Y115.2 E7.33343
G1 X129.86 Y115.968 E7.35901
G1 X129.741 Y116.728 E7.3846
G1 X129.543 Y117.471 E7.41017
G1 X129.269 Y118.19 E7.43576
G1 X128.922 Y118.876 E7.46133
G1 X128.506 Y119.523 E7.48692
G1 X128.025 Y120.123 E7.51249
G1 X127.484 Y120.67 E7.53808
G1 X126.889 Y121.158 E7.56368
G1 X126.247 Y121.581 E7.58925
G1 X125.564 Y121.936 E7.61485
G1 X124.849 Y122.217 E7.6404
G1 X124.107 Y122.423 E7.66601
G1 X123.349 Y122.551 E7.69158
G1 X122.5 Y122.6 E7.71987
G1 X92.505 Y122.6 E8.7175
G1 X91.737 Y122.56 E8.74308
G1 X90.977 Y122.441 E8.76867
G1 X90.234 Y122.243 E8.79424
G1 X89.515 Y121.969 E8.81983
G1 X88.829 Y121.622 E8.8454
G1 X88.182 Y121.206 E8.87099
G1 X87.582 Y120.725 E8.89656
G1 X87.035 Y120.184 E8.92215
G1 X86.547 Y119.589 E8.94775
G1 X86.124 Y118.947 E8.97332
G1 X85.769 Y118.264 E8.99892
G1 X85.488 Y117.549 E9.02447
G1 X85.282 Y116.807 E9.05008
G1 X85.154 Y116.049 E9.07565
G1 X85.105 Y115.2 E9.10394
G1 X85.105 Y111.013 E9.2432
G1 X85.145 Y110.245 E9.26878
G1 X85.264 Y109.485 E9.29436
G1 X85.462 Y108.742 E9.31994
G1 X85.736 Y108.023 E9.34553
G1 X85.793 Y107.91 E9.34974
G1 X85.769 Y107.864 E9.35146
G1 X85.488 Y107.149 E9.37701
G1 X85.282 Y106.408 E9.4026
G1 X85.154 Y105.649 E9.4282
G1 X85.105 Y104.8 E9.45648
G1 X85.105 Y94.8 E9.78908
G1 X85.145 Y94.032 E9.81466
G1 X85.264 Y93.272 E9.84025
G1 X85.462 Y92.529 E9.86582
G1 X85.736 Y91.81 E9.89141
G1 X86.083 Y91.124 E9.91698
G1 X86.499 Y90.477 E9.94257
G1 X86.98 Y89.877 E9.96814
G1 X87.521 Y89.33 E9.99373
G0 F3600 X87.913 Y89.516
G1 F1200 X88.503 Y89.057 E10.01859
G1 X89.139 Y88.662 E10.04349
G1 X89.813 Y88.338 E10.06837
G1 X90.518 Y88.088 E10.09325
G1 X91.246 Y87.914 E10.11814
G1 X91.988 Y87.819 E10.14302
G1 X92.505 Y87.8 E10.16023
G1 X95.138 Y87.8 E10.2478
G1 X95.885 Y87.84 E10.27268
G1 X96.623 Y87.959 E10.29755
G1 X97.345 Y88.157 E10.32245
G1 X98.041 Y88.43 E10.34731
G1 X98.704 Y88.777 E10.3722
G1 X99.076 Y89.025 E10.38707
G1 X99.614 Y88.672 E10.40848
G1 X100.279 Y88.33 E10.43335
G1 X100.978 Y88.062 E10.45825
G1 X101.701 Y87.87 E10.48313
G1 X102.266 Y87.783 E10.50214
G1 X102.906 Y87.582 E10.52445
G1 X103.64 Y87.436 E10.54934
G1 X104.641 Y87.364 E10.58272
G1 X121.248 Y87.364 E11.13507
G1 X121.995 Y87.404 E11.15995
G1 X122.733 Y87.523 E11.18482
G1 X123.09 Y87.621 E11.19713
G1 X123.447 Y87.64 E11.20902
G1 X124.185 Y87.759 E11.23388
G1 X124.907 Y87.957 E11.25878
G1 X125.603 Y88.23 E11.28365
G1 X126.266 Y88.577 E11.30854
G1 X126.889 Y88.992 E11.33344
G1 X127.463 Y89.471 E11.3583
G1 X127.984 Y90.008 E11.38319
G1 X128.443 Y90.598 E11.40805
G1 X128.838 Y91.234 E11.43295
G1 X129.162 Y91.908 E11.45782
G1 X129.412 Y92.613 E11.4827
G1 X129.586 Y93.341 E11.5076
G1 X129.681 Y94.083 E11.53248
G1 X129.7 Y94.6 E11.54969
G1 X129.7 Y95.01 E11.56332
G1 X129.66 Y95.757 E11.5882
G1 X129.541 Y96.495 E11.61307
G1 X129.343 Y97.217 E11.63797
G1 X129.07 Y97.913 E11.66283
G1 X128.723 Y98.576 E11.68772
G1 X128.339 Y99.153 E11.71078
G1 X128.638 Y99.634 E11.72961
G1 X128.962 Y100.308 E11.75449
G1 X129.212 Y101.013 E11.77937
G1 X129.386 Y101.741 E11.80426
G1 X129.481 Y102.483 E11.82914
G1 X129.5 Y103 E11.84635
G1 X129.5 Y104.799 E11.90618
G1 X129.46 Y105.546 E11.93106
G1 X129.341 Y106.284 E11.95593
G1 X129.143 Y107.006 E11.98083
G1 X128.87 Y107.702 E12.00569
G1 X128.766 Y107.901 E12.01316
G1 X128.961 Y108.305 E12.02808
G1 X129.211 Y109.01 E12.05296
G1 X129.385 Y109.738 E12.07786
G1 X129.481 Y110.48 E12.10274
G1 X129.5 Y111 E12.12005
G1 X129.5 Y115.2 E12.25974
G1 X129.46 Y115.947 E12.28462
G1 X129.341 Y116.685 E12.30948
G1 X129.143 Y117.407 E12.33439
G1 X128.87 Y118.103 E12.35925
G1 X128.523 Y118.766 E12.38414
G1 X128.108 Y119.389 E12.40904
G1 X127.629 Y119.963 E12.4339
G1 X127.092 Y120.484 E12.45879
G1 X126.502 Y120.943 E12.48365
G1 X125.866 Y121.338 E12.50855
G1 X125.192 Y121.662 E12.53343
G1 X124.487 Y121.912 E12.5583
G1 X123.759 Y122.086 E12.5832
G1 X123.017 Y122.181 E12.60808
G1 X122.5 Y122.2 E12.62529
G1 X92.505 Y122.2 E13.62293
G1 X91.758 Y122.16 E13.64781
G1 X91.02 Y122.041 E13.67267
G1 X90.298 Y121.843 E13.69757
G1 X89.602 Y121.57 E13.72244
G1 X88.939 Y121.223 E13.74732
G1 X88.316 Y120.808 E13.77222
G1 X87.742 Y120.329 E13.79709
G1 X87.221 Y119.792 E13.82197
G1 X86.762 Y119.202 E13.84684
G1 X86.367 Y118.566 E13.87174
G1 X86.043 Y117.892 E13.89661
G1 X85.793 Y117.187 E13.92149
G1 X85.619 Y116.459 E13.94638
G1 X85.524 Y115.717 E13.97126
G1 X85.505 Y115.2 E13.98847
G1 X85.505 Y111.013 E14.12773
G1 X85.545 Y110.266 E14.15261
G1 X85.664 Y109.528 E14.17748
G1 X85.862 Y108.806 E14.20238
G1 X86.135 Y108.11 E14.22724
G1 X86.242 Y107.906 E14.2349
G1 X86.043 Y107.492 E14.25018
G1 X85.793 Y106.787 E14.27506
G1 X85.619 Y106.059 E14.29996
G1 X85.524 Y105.317 E14.32484
G1 X85.505 Y104.8 E14.34204
G1 X85.505 Y94.8 E14.67465
G1 X85.545 Y94.053 E14.69953
G1 X85.664 Y93.315 E14.72439
G1 X85.862 Y92.593 E14.74929
G1 X86.135 Y91.897 E14.77416
G1 X86.482 Y91.234 E14.79905
G1 X86.897 Y90.611 E14.82394
G1 X87.376 Y90.037 E14.84881
G1 X87.913 Y89.516 E14.87369
G0 F3600 X88.304 Y89.709
G1 F1200 X88.889 Y89.279 E14.89784
G1 X89.518 Y88.915 E14.92201
G1 X90.183 Y88.622 E14.94618
G1 X90.876 Y88.404 E14.97035
G1 X91.588 Y88.264 E14.99448
G1 X92.505 Y88.2 E15.02505
G1 X95.138 Y88.2 E15.11263
G1 X95.863 Y88.24 E15.13678
G1 X96.58 Y88.359 E15.16095
G1 X97.279 Y88.557 E15.18512
G1 X97.952 Y88.83 E15.20927
G1 X98.591 Y89.175 E15.23342
G1 X99.089 Y89.52 E15.25357
G1 X99.38 Y89.294 E15.26583
G1 X99.999 Y88.914 E15.28999
G1 X100.656 Y88.605 E15.31413
G1 X101.343 Y88.369 E15.33829
G1 X102.052 Y88.211 E15.36245
G1 X102.328 Y88.188 E15.37167
G1 X102.431 Y88.145 E15.37538
G1 X103.128 Y87.94 E15.39954
G1 X103.843 Y87.812 E15.4237
G1 X104.641 Y87.764 E15.45029
G1 X121.248 Y87.764 E16.00264
G1 X121.973 Y87.804 E16.02679
G1 X122.69 Y87.923 E16.05097
G1 X123.025 Y88.018 E16.06255
G1 X123.425 Y88.04 E16.07587
G1 X124.142 Y88.159 E16.10005
G1 X124.841 Y88.357 E16.12421
G1 X125.514 Y88.63 E16.14837
G1 X126.153 Y88.975 E16.17252
G1 X126.75 Y89.389 E16.19668
G1 X127.298 Y89.865 E16.22082
G1 X127.791 Y90.399 E16.245
G1 X128.221 Y90.984 E16.26914
G1 X128.585 Y91.613 E16.29332
G1 X128.878 Y92.278 E16.31749
G1 X129.096 Y92.971 E16.34165
G1 X129.236 Y93.683 E16.36578
G1 X129.3 Y94.6 E16.39636
G1 X129.3 Y95.01 E16.40999
G1 X129.26 Y95.735 E16.43414
G1 X129.141 Y96.452 E16.45832
G1 X128.943 Y97.151 E16.48248
G1 X128.67 Y97.824 E16.50664
G1 X128.325 Y98.463 E16.53079
G1 X127.911 Y99.06 E16.55495
G1 X127.842 Y99.14 E16.55847
G1 X128.021 Y99.384 E16.56853
G1 X128.385 Y100.013 E16.5927
G1 X128.678 Y100.678 E16.61687
G1 X128.896 Y101.371 E16.64104
G1 X129.036 Y102.083 E16.66517
G1 X129.1 Y103 E16.69574
G1 X129.1 Y104.799 E16.75558
G1 X129.06 Y105.524 E16.77973
G1 X128.941 Y106.241 E16.8039
G1 X128.743 Y106.94 E16.82807
G1 X128.47 Y107.613 E16.85222
G1 X128.318 Y107.895 E16.86288
G1 X128.384 Y108.01 E16.86729
G1 X128.677 Y108.675 E16.89146
G1 X128.895 Y109.368 E16.91562
G1 X129.036 Y110.08 E16.93976
G1 X129.1 Y111 E16.97043
G1 X129.1 Y115.2 E17.11013
G1 X129.06 Y115.925 E17.13428
G1 X128.941 Y116.642 E17.15845
G1 X128.743 Y117.341 E17.18261
G1 X128.47 Y118.014 E17.20677
G1 X128.125 Y118.653 E17.23092
G1 X127.711 Y119.25 E17.25509
G1 X127.235 Y119.798 E17.27923
G1 X126.701 Y120.291 E17.3034
G1 X126.116 Y120.721 E17.32755
G1 X125.487 Y121.085 E17.35172
G1 X124.822 Y121.378 E17.37589
G1 X124.129 Y121.596 E17.40005
G1 X123.417 Y121.736 E17.42419
G1 X122.5 Y121.8 E17.45476
G1 X92.505 Y121.8 E18.4524
G1 X91.78 Y121.76 E18.47655
G1 X91.063 Y121.641 E18.50072
G1 X90.364 Y121.443 E18.52489
G1 X89.691 Y121.17 E18.54904
G1 X89.052 Y120.825 E18.5732
G1 X88.455 Y120.411 E18.59736
G1 X87.907 Y119.935 E18.6215
G1 X87.414 Y119.401 E18.64567
G1 X86.984 Y118.816 E18.66982
G1 X86.62 Y118.187 E18.69399
G1 X86.327 Y117.522 E18.71816
G1 X86.109 Y116.829 E18.74233
G1 X85.969 Y116.117 E18.76646
G1 X85.905 Y115.2 E18.79703
G1 X85.905 Y111.013 E18.93629
G1 X85.945 Y110.288 E18.96045
G1 X86.064 Y109.571 E18.98462
G1 X86.262 Y108.872 E19.00878
G1 X86.535 Y108.199 E19.03294
G1 X86.691 Y107.91 E19.04386
G1 X86.62 Y107.787 E19.04858
G1 X86.327 Y107.123 E19.07272
G1 X86.109 Y106.43 E19.09689
G1 X85.969 Y105.717 E19.12105
G1 X85.905 Y104.8 E19.15163
G1 X85.905 Y94.8 E19.48423
G1 X85.945 Y94.075 E19.50838
G1 X86.064 Y93.358 E19.53255
G1 X86.262 Y92.659 E19.55672
G1 X86.535 Y91.986 E19.58087
G1 X86.88 Y91.347 E19.60503
G1 X87.294 Y90.75 E19.62919
G1 X87.77 Y90.202 E19.65333
G1 X88.304 Y89.709 E19.6775
G0 F3600 X88.694 Y89.909
G1 F1200 X89.273 Y89.509 E19.70091
G1 X89.894 Y89.177 E19.72433
G1 X90.548 Y88.917 E19.74774
G1 X91.228 Y88.733 E19.77117
G1 X91.924 Y88.627 E19.79459
G1 X92.505 Y88.6 E19.81393
G1 X95.138 Y88.6 E19.9015
G1 X95.841 Y88.64 E19.92492
G1 X96.535 Y88.759 E19.94834
G1 X97.21 Y88.957 E19.97174
G1 X97.859 Y89.229 E19.99515
G1 X98.473 Y89.574 E20.01857
G1 X99.044 Y89.985 E20.04197
G1 X99.093 Y90.03 E20.04418
G1 X99.201 Y89.93 E20.04908
G1 X99.77 Y89.515 E20.0725
G1 X100.382 Y89.166 E20.09593
G1 X101.029 Y88.89 E20.11933
G1 X101.704 Y88.689 E20.14275
G1 X102.397 Y88.565 E20.16617
G1 X102.484 Y88.56 E20.16907
G1 X102.668 Y88.486 E20.17566
G1 X103.347 Y88.301 E20.19907
G1 X104.042 Y88.193 E20.22246
G1 X104.641 Y88.164 E20.24241
G1 X121.248 Y88.164 E20.79476
G1 X121.951 Y88.204 E20.81818
G1 X122.645 Y88.323 E20.8416
G1 X122.957 Y88.415 E20.85242
G1 X123.403 Y88.44 E20.86728
G1 X124.097 Y88.559 E20.8907
G1 X124.772 Y88.757 E20.91409
G1 X125.421 Y89.029 E20.9375
G1 X126.035 Y89.374 E20.96092
G1 X126.606 Y89.785 E20.98432
G1 X127.127 Y90.259 E21.00775
G1 X127.591 Y90.789 E21.03118
G1 X127.991 Y91.368 E21.05458
G1 X128.323 Y91.989 E21.07801
G1 X128.583 Y92.643 E21.10141
G1 X128.767 Y93.323 E21.12484
G1 X128.873 Y94.019 E21.14826
G1 X128.9 Y94.6 E21.1676
G1 X128.9 Y95.01 E21.18124
G1 X128.86 Y95.713 E21.20466
G1 X128.741 Y96.407 E21.22808
G1 X128.543 Y97.082 E21.25148
